static/misc/rgb-printer-441.ti1
CTI1

DESCRIPTOR "Argyll Calibration Target chart information 1"
ORIGINATOR "Argyll targen"
CREATED "Fri Apr  3 14:55:49 2009"
KEYWORD "APPROX_WHITE_POINT"
APPROX_WHITE_POINT "95.106486 100.000000 108.844025"
KEYWORD "COLOR_REP"
COLOR_REP "RGB"
KEYWORD "WHITE_COLOR_PATCHES"
WHITE_COLOR_PATCHES "4"
KEYWORD "MULTI_DIM_STEPS"
MULTI_DIM_STEPS "2"
KEYWORD "ERROR_OPTIMISED_PATCHES"
ERROR_OPTIMISED_PATCHES "430"

NUMBER_OF_FIELDS 7
BEGIN_DATA_FORMAT
SAMPLE_ID RGB_R RGB_G RGB_B XYZ_X XYZ_Y XYZ_Z 
END_DATA_FORMAT

NUMBER_OF_SETS 441
BEGIN_DATA
1 100.00 100.00 100.00 95.106 100.00 108.84 
2 100.00 100.00 100.00 95.106 100.00 108.84 
3 100.00 100.00 100.00 95.106 100.00 108.84 
4 100.00 100.00 100.00 95.106 100.00 108.84 
5 0.0000 0.0000 0.0000 1.0000 1.0000 1.0000 
6 100.00 0.0000 0.0000 41.830 22.052 2.9132 
7 0.0000 100.00 0.0000 36.405 71.801 12.802 
8 100.00 100.00 0.0000 77.235 92.853 14.715 
9 0.0000 0.0000 100.00 18.871 8.1473 95.129 
10 100.00 0.0000 100.00 59.701 29.199 97.042 
11 0.0000 100.00 100.00 54.276 78.948 106.93 
12 51.946 50.655 51.038 22.287 23.081 25.107 
13 7.0588 29.016 50.314 7.5481 7.5251 22.241 
14 48.859 7.0460 73.986 18.586 9.3368 49.171 
15 27.563 52.024 96.379 28.214 25.387 90.432 
16 22.386 45.577 0.10007 8.8853 14.280 3.1553 
17 31.456 100.00 46.837 43.021 74.827 30.457 
18 96.229 26.035 47.510 43.792 25.564 21.449 
19 52.378 1.0359 20.569 11.317 6.2896 4.7478 
20 78.163 55.335 94.621 49.609 38.258 88.264 
21 90.769 78.630 50.285 58.213 60.573 29.788 
22 79.099 51.868 4.1803 33.298 29.824 5.1661 
23 52.265 93.027 4.1747 40.724 66.067 11.771 
24 48.872 91.665 94.087 53.939 69.623 93.037 
25 0.0000 63.030 34.600 15.324 26.840 14.426 
26 0.38905 75.055 74.155 28.647 41.703 55.132 
27 66.958 94.913 41.595 51.597 73.458 25.843 
28 52.974 31.465 95.742 29.952 18.296 87.684 
29 21.374 2.0904 48.897 6.2356 3.3629 20.291 
30 76.181 0.0000 46.588 26.378 13.705 19.337 
31 29.695 31.838 70.177 14.907 11.583 44.520 
32 67.964 71.991 69.987 43.016 46.795 49.582 
33 72.595 26.270 65.643 29.765 17.977 39.155 
34 27.279 34.498 29.505 8.1878 9.6838 8.9322 
35 31.149 69.385 31.957 21.269 34.361 14.177 
36 74.402 25.691 30.179 25.182 16.136 9.5933 
37 33.626 73.180 70.058 30.310 41.174 49.261 
38 78.318 78.761 28.426 46.323 54.869 15.165 
39 0.0000 32.149 86.486 16.847 12.114 69.736 
40 49.871 28.690 3.7392 12.112 10.240 2.4694 
41 98.400 52.600 66.308 55.916 41.047 43.051 
42 95.857 52.203 31.697 47.871 37.346 13.223 
43 0.0000 33.902 14.574 4.6637 7.7934 3.8651 
44 7.2862 4.4797 65.157 8.2096 4.1106 37.019 
45 83.748 99.060 67.760 70.429 87.365 53.060 
46 3.8099 100.00 36.033 38.433 72.626 22.855 
47 3.7586 63.328 4.5613 13.885 26.489 5.5743 
48 2.7566 92.036 68.263 37.984 62.717 50.657 
49 99.774 4.3225 41.201 44.267 23.192 16.257 
50 33.261 6.2488 100.00 22.746 10.416 95.363 
51 94.524 5.5388 63.512 43.538 22.419 36.724 
52 66.426 0.14144 99.534 34.968 16.475 94.898 
53 21.652 49.772 49.743 13.858 18.328 23.499 
54 92.893 30.904 15.942 38.682 24.472 5.5922 
55 0.0000 3.6353 35.729 2.9738 1.9488 10.905 
56 31.686 9.1026 3.2739 4.6954 3.3565 1.4977 
57 50.701 49.373 80.790 28.413 24.803 61.987 
58 54.082 64.341 9.1721 24.675 32.714 6.6979 
59 78.772 81.904 97.530 64.235 65.103 98.555 
60 94.595 32.467 90.812 54.396 31.392 79.341 
61 49.386 18.026 49.841 14.274 8.8384 21.730 
62 22.967 79.725 97.771 40.953 51.120 97.581 
63 68.095 6.2190 2.3763 18.418 10.246 2.0397 
64 95.412 69.183 4.4156 53.211 50.846 8.1933 
65 98.623 95.964 34.888 74.588 86.585 22.997 
66 79.504 53.128 48.737 37.576 32.269 24.085 
67 25.654 100.00 19.390 39.149 73.151 15.844 
68 100.00 77.023 80.778 72.494 65.728 67.546 
69 50.013 98.869 65.776 51.218 77.289 49.637 
70 30.531 77.678 3.1415 24.154 42.633 8.0446 
71 62.843 71.613 35.521 33.941 42.535 16.990 
72 26.049 96.609 80.412 46.905 71.989 69.515 
73 2.8041 58.571 96.671 28.333 29.054 91.727 
74 48.898 67.868 95.225 40.127 41.300 90.553 
75 13.203 80.989 53.829 28.109 47.074 32.002 
76 50.613 46.856 21.431 17.236 19.071 7.1691 
77 75.805 94.184 8.7723 53.898 74.117 13.098 
78 27.111 7.2019 76.353 13.378 6.5847 52.379 
79 27.488 7.3090 25.860 4.7039 3.1306 6.3117 
80 78.609 23.281 98.049 43.358 23.189 92.638 
81 2.7794 46.586 63.672 14.084 16.653 37.352 
82 17.695 56.271 27.492 12.973 21.588 10.099 
83 81.396 6.1973 28.233 27.970 15.040 8.3601 
84 23.699 27.126 99.332 22.589 13.238 94.499 
85 46.750 98.100 31.368 43.888 73.250 20.201 
86 73.241 7.2473 72.321 30.064 15.319 47.369 
87 70.425 57.273 27.049 30.786 31.349 10.861 
88 18.564 55.777 74.691 21.040 24.527 52.992 
89 93.937 64.093 94.528 65.194 51.639 89.842 
90 6.9820 48.287 31.161 9.6862 15.747 10.802 
91 71.952 69.947 0.17805 36.284 42.693 7.2024 
92 74.047 51.699 72.915 38.649 31.488 50.870 
93 15.018 80.470 17.270 23.915 44.912 10.633 
94 44.029 82.306 54.685 35.085 51.858 33.381 
95 77.116 30.973 12.947 26.744 18.349 4.4190 
96 87.802 97.947 46.838 68.499 85.543 31.184 
97 48.994 27.602 75.943 21.159 13.537 52.702 
98 68.470 94.124 89.597 63.200 77.253 85.470 
99 27.109 25.731 47.253 8.7320 7.4246 19.587 
100 89.937 23.393 68.918 42.415 23.807 43.765 
101 9.6678 23.085 71.669 11.368 7.6578 45.973 
102 72.000 91.581 21.257 50.139 69.298 15.077 
103 99.686 72.729 33.804 60.482 57.110 17.459 
104 6.7788 81.427 84.310 35.622 50.461 72.385 
105 24.651 30.981 9.0181 5.9421 7.6390 2.8238 
106 71.422 79.226 53.053 45.396 54.431 31.780 
107 81.219 18.032 51.479 31.547 17.714 23.978 
108 8.5448 23.540 26.894 3.9749 4.7888 7.0826 
109 90.776 22.505 31.298 36.675 21.407 10.540 
110 48.041 0.0000 0.0000 9.0170 5.1336 1.3757 
111 65.063 67.048 88.093 44.371 43.202 77.150 
112 59.926 48.566 100.00 38.959 29.067 98.109 
113 99.786 52.205 16.256 50.356 38.751 7.8062 
114 55.840 0.21843 41.710 14.711 7.7785 15.187 
115 7.2979 45.459 1.9744 7.4600 13.491 3.2141 
116 40.679 17.222 15.289 7.8723 5.8204 3.4683 
117 51.164 75.973 81.088 40.350 48.261 66.367 
118 88.422 71.239 67.070 55.663 52.820 46.292 
119 5.7511 59.132 48.861 15.752 24.396 23.819 
120 87.140 40.184 42.943 38.397 27.012 18.521 
121 60.298 76.182 17.979 33.793 46.286 10.558 
122 37.015 16.337 33.090 8.0166 5.6317 9.9080 
123 10.961 11.697 11.858 2.1632 2.2483 2.4118 
124 97.578 61.760 52.510 55.890 46.647 29.220 
125 23.238 82.918 38.456 28.158 49.140 20.321 
126 34.281 95.222 99.690 54.353 73.471 105.21 
127 39.628 64.096 52.226 23.568 31.511 27.739 
128 64.515 39.425 50.569 24.746 19.562 23.883 
129 50.060 5.0075 95.712 26.079 12.267 86.664 
130 49.414 62.523 65.251 28.719 32.827 41.596 
131 91.030 5.8687 54.179 38.711 20.167 26.584 
132 6.0861 5.8722 52.741 5.6667 3.1599 23.685 
133 86.369 43.279 59.305 41.402 29.440 33.452 
134 85.340 39.407 24.311 34.932 25.161 8.3891 
135 88.925 12.898 80.586 43.793 22.590 60.421 
136 12.974 13.186 89.817 16.187 8.0350 74.993 
137 41.844 45.858 64.144 19.854 19.295 38.117 
138 37.573 37.360 47.385 13.238 12.965 20.525 
139 58.413 16.286 17.446 14.526 9.1130 4.2614 
140 79.863 38.207 86.149 42.579 27.304 70.722 
141 65.310 90.156 68.863 52.390 68.141 51.725 
142 31.262 66.375 85.995 31.043 35.940 72.727 
143 79.442 73.068 37.880 44.840 49.261 19.108 
144 63.616 14.010 59.047 21.909 12.060 30.847 
145 41.697 39.809 96.786 28.173 20.003 90.222 
146 35.910 9.6526 59.917 11.339 6.1731 31.209 
147 85.935 93.295 23.033 60.981 76.721 16.519 
148 88.965 66.109 82.578 57.878 49.718 68.162 
149 0.0000 90.966 53.526 33.994 59.885 33.877 
150 30.658 60.424 13.594 15.875 25.635 6.5208 
151 92.219 79.949 14.141 56.636 61.332 11.373 
152 60.883 46.863 7.6720 21.143 21.153 4.4646 
153 0.23869 54.184 15.497 10.401 19.194 5.9624 
154 89.812 14.239 11.660 33.861 18.858 3.9151 
155 5.0614 48.316 83.131 19.965 19.863 65.315 
156 52.765 37.116 61.375 20.825 16.496 34.317 
157 64.037 33.849 78.863 29.783 19.559 57.850 
158 95.251 90.821 65.848 73.005 79.551 49.015 
159 33.865 41.606 8.7366 10.091 13.258 3.6530 
160 24.850 84.637 67.054 34.597 53.497 47.513 
161 79.472 80.289 80.167 57.685 60.959 66.427 
162 24.151 65.783 45.331 19.856 30.871 22.013 
163 94.519 47.229 85.023 56.000 37.873 70.100 
164 49.600 25.927 28.837 12.733 9.7821 8.4118 
165 88.286 63.799 27.231 45.772 43.124 12.420 
166 99.763 82.410 96.141 80.806 74.175 96.597 
167 82.725 78.912 7.3885 48.429 56.209 9.7620 
168 52.132 60.121 24.483 22.768 28.935 9.8207 
169 15.250 89.692 2.3944 29.521 56.757 10.434 
170 35.220 93.786 0.0000 35.761 64.344 11.396 
171 36.056 83.974 19.789 29.786 51.159 12.206 
172 35.850 54.112 34.829 16.086 21.925 13.563 
173 63.795 16.605 84.030 28.773 15.160 65.456 
174 36.895 85.981 81.075 41.843 58.091 68.165 
175 2.8044 79.560 97.313 39.002 49.988 96.520 
176 22.174 40.060 43.219 10.162 12.404 17.386 
177 67.287 15.015 41.123 20.967 12.036 15.277 
178 9.3459 42.681 96.670 23.313 18.601 89.973 
179 14.993 68.506 87.205 30.022 36.886 75.095 
180 85.739 84.952 35.042 56.086 65.513 19.989 
181 19.809 36.199 60.458 11.932 11.630 32.824 
182 36.344 15.060 89.241 19.941 10.207 74.153 
183 99.840 96.679 81.091 85.595 91.994 72.430 
184 14.654 61.248 7.9196 13.696 25.045 5.6372 
185 61.190 68.168 53.943 34.044 39.708 30.375 
186 14.309 39.318 78.380 16.581 14.574 56.835 
187 2.2651 90.831 19.663 30.109 58.187 13.510 
188 22.026 64.639 66.885 23.151 31.310 43.619 
189 3.8472 17.682 2.5502 2.0893 2.9414 1.5023 
190 94.232 36.286 4.0734 40.567 27.086 4.2468 
191 58.505 81.221 98.429 52.663 58.470 99.749 
192 48.731 99.047 51.013 47.904 76.135 33.977 
193 15.352 39.383 24.619 7.2687 10.887 7.2032 
194 61.447 77.884 0.50247 34.844 48.326 8.3892 
195 59.405 54.295 65.941 29.798 28.487 41.548 
196 70.686 84.184 36.791 45.661 59.380 20.361 
197 5.0816 14.896 96.913 18.491 9.1113 88.890 
198 55.941 79.465 68.004 40.722 51.867 48.085 
199 13.489 6.7205 37.177 3.9029 2.5589 11.823 
200 61.483 42.347 35.883 21.923 19.447 13.373 
201 9.6837 79.425 65.110 29.242 45.992 43.939 
202 91.002 38.404 97.465 55.142 33.374 92.776 
203 67.685 61.612 10.277 30.117 33.735 6.7652 
204 80.895 9.1886 62.376 32.791 17.137 34.950 
205 65.173 2.2899 12.594 16.932 9.2774 3.1201 
206 93.256 36.732 72.813 48.518 30.328 49.982 
207 24.649 20.306 20.763 4.8615 4.7076 4.8412 
208 21.251 8.7944 59.482 8.3939 4.5999 30.587 
209 6.6353 45.422 44.943 10.433 14.659 19.085 
210 99.827 34.605 31.755 46.614 29.506 11.804 
211 83.406 95.427 99.072 77.407 85.616 105.03 
212 98.784 43.735 49.024 50.060 34.308 24.063 
213 55.030 94.841 81.559 54.423 73.830 71.326 
214 55.576 11.020 4.7271 12.476 7.5233 2.0009 
215 19.000 95.231 92.307 48.815 70.954 90.109 
216 48.731 79.321 30.004 31.550 47.727 15.274 
217 3.6144 82.322 35.913 25.808 47.408 18.583 
218 17.122 3.8921 0.14391 2.1227 1.7369 1.0936 
219 81.004 82.083 67.305 56.342 62.301 48.385 
220 34.612 27.989 0.24959 7.2669 7.5766 1.9575 
221 30.687 77.231 50.047 27.718 43.651 27.920 
222 21.202 99.780 4.3521 37.798 72.249 13.132 
223 74.531 83.681 9.6633 45.862 59.218 10.766 
224 37.221 97.053 82.073 50.171 74.122 72.445 
225 36.093 0.19059 11.294 5.5957 3.3522 2.3503 
226 49.804 32.960 43.185 15.601 12.869 17.165 
227 94.579 18.126 96.216 54.322 28.048 89.240 
228 77.991 100.00 31.745 61.161 84.395 21.628 
229 41.076 55.607 3.3182 16.331 23.069 4.6931 
230 44.023 52.695 95.793 32.348 27.891 89.512 
231 36.389 58.252 73.812 25.028 28.033 52.192 
232 83.724 9.2657 41.413 31.182 16.735 15.844 
233 59.961 80.500 50.774 39.622 52.632 29.663 
234 36.820 28.448 59.458 13.469 10.240 31.383 
235 16.577 2.6694 91.914 16.788 7.5418 78.802 
236 42.160 89.125 71.396 42.699 62.004 54.438 
237 62.930 25.185 56.604 22.284 14.107 28.674 
238 33.361 55.707 58.566 19.698 24.241 32.802 
239 42.603 83.348 94.638 46.411 57.382 92.158 
240 43.063 38.524 76.651 21.494 16.883 54.386 
241 98.990 17.531 4.2090 41.875 23.431 3.4825 
242 98.372 59.994 77.835 61.757 47.887 60.047 
243 13.103 96.801 44.538 37.500 68.277 27.703 
244 21.073 75.489 79.057 31.771 43.508 62.671 
245 98.990 3.6228 19.298 41.551 21.992 5.8167 
246 61.689 2.0461 83.270 26.690 12.963 63.862 
247 0.57085 3.4939 82.536 12.689 5.8301 62.000 
248 30.120 96.793 34.052 38.588 68.977 21.036 
249 86.875 65.703 8.0821 44.594 43.913 7.6714 
250 63.994 82.388 85.289 51.295 59.388 74.961 
251 69.480 72.803 26.838 37.348 45.312 13.125 
252 82.396 55.321 34.857 38.566 34.174 14.759 
253 11.081 56.131 38.050 13.364 21.590 15.530 
254 3.7958 73.261 19.731 19.252 36.399 9.8952 
255 13.122 96.047 59.161 39.460 68.135 40.869 
256 100.00 84.792 47.588 69.636 72.156 29.146 
257 22.951 24.808 82.673 16.151 10.101 62.870 
258 84.754 6.2732 95.540 45.368 22.285 87.236 
259 65.393 52.332 85.228 37.534 30.812 70.063 
260 96.564 5.5548 81.744 50.196 25.289 62.479 
261 2.8462 95.060 84.999 45.014 69.096 76.665 
262 78.599 21.619 79.120 36.581 20.145 58.007 
263 4.5668 3.6496 15.744 1.6270 1.4275 3.0506 
264 58.672 98.989 19.070 48.520 76.784 15.963 
265 71.569 43.693 19.792 26.470 22.485 6.8470 
266 68.510 2.0175 32.343 20.018 10.712 9.8720 
267 37.961 22.849 100.00 25.242 13.675 95.860 
268 44.727 73.815 4.5632 25.794 40.272 7.6079 
269 71.349 67.212 100.00 52.448 46.967 100.85 
270 9.6917 32.262 1.9711 4.4246 7.2260 2.1644 
271 13.488 91.618 30.313 32.028 59.921 17.747 
272 39.895 2.0612 84.631 18.699 8.7929 65.779 
273 85.648 5.3608 4.7195 29.962 16.150 2.7445 
274 71.984 41.107 97.376 42.273 27.731 92.182 
275 19.222 46.330 15.532 9.0581 14.655 5.1649 
276 99.802 16.964 22.603 43.258 23.985 7.1278 
277 51.225 71.433 49.985 30.626 40.460 27.097 
278 96.180 14.206 62.803 45.298 24.049 36.118 
279 69.533 61.296 41.903 33.462 34.978 19.584 
280 16.345 65.768 100.00 33.614 36.245 99.776 
281 58.591 60.031 72.436 33.276 33.399 50.850 
282 86.863 57.623 62.773 47.283 39.453 38.953 
283 32.742 44.075 21.905 11.058 14.682 6.7985 
284 80.936 68.711 51.243 45.560 46.095 28.506 
285 64.732 42.371 0.32982 21.695 19.557 3.5160 
286 50.840 32.022 15.427 13.390 11.741 4.3510 
287 41.060 4.5061 45.246 9.9428 5.4383 17.561 
288 99.841 67.473 20.672 56.929 51.457 11.095 
289 80.958 19.831 25.805 28.444 16.750 7.6691 
290 12.970 50.996 62.052 15.662 19.588 35.954 
291 75.124 95.725 57.385 59.636 78.216 39.881 
292 33.337 51.211 84.949 25.042 23.813 68.891 
293 40.055 27.340 39.775 10.938 9.0449 14.331 
294 46.813 19.944 57.839 15.001 9.3419 29.409 
295 19.109 66.333 25.632 17.271 30.167 10.780 
296 1.4408 17.797 21.136 2.6460 3.1731 4.7763 
297 43.313 51.124 13.670 15.672 20.332 5.5225 
298 23.277 18.630 5.0056 3.9037 4.0126 1.7978 
299 100.00 14.319 42.135 45.121 24.392 17.089 
300 38.487 19.794 73.643 16.116 9.4632 48.835 
301 55.116 59.741 36.917 24.977 29.711 15.799 
302 30.135 99.042 63.611 45.131 74.412 46.793 
303 50.482 0.27180 55.990 14.822 7.5718 27.187 
304 58.545 20.454 72.103 23.098 13.219 47.027 
305 61.147 91.330 30.263 44.711 66.155 18.259 
306 52.734 12.841 33.293 12.960 7.7678 10.167 
307 48.266 63.212 84.451 33.938 35.349 69.795 
308 3.6075 15.635 41.559 4.4354 3.5821 14.814 
309 40.379 97.992 15.164 40.700 71.605 14.410 
310 89.482 45.664 76.411 48.703 33.722 55.844 
311 23.788 87.278 13.447 29.184 54.099 11.286 
312 90.611 88.255 88.976 74.030 76.652 83.646 
313 19.244 10.450 99.412 20.270 9.4605 94.060 
314 14.579 93.459 76.267 41.820 65.989 62.220 
315 75.966 62.855 60.950 41.341 39.661 37.232 
316 0.12317 35.390 67.781 12.097 11.262 41.468 
317 5.6463 74.232 58.746 24.700 39.423 35.661 
318 42.330 39.287 33.963 13.333 13.886 11.684 
319 100.00 21.197 78.546 53.495 28.811 57.895 
320 36.439 89.446 42.956 35.715 59.381 24.919 
321 73.560 13.510 15.092 22.363 12.834 4.0159 
322 0.13119 15.583 60.691 7.5846 4.8218 31.997 
323 98.622 100.00 55.168 80.703 94.093 39.603 
324 17.931 55.117 91.695 26.147 26.166 81.489 
325 63.100 95.603 99.789 65.285 79.530 106.01 
326 85.899 28.342 0.27863 32.252 20.544 3.1468 
327 73.185 41.227 34.089 27.913 22.122 12.574 
328 94.910 66.680 40.302 53.912 49.134 20.152 
329 35.686 32.294 84.512 20.493 14.111 66.508 
330 66.194 52.063 50.570 29.348 27.440 25.162 
331 20.889 23.591 36.136 5.9945 5.7397 11.712 
332 17.003 6.7993 74.334 11.359 5.5845 49.329 
333 61.288 55.063 23.582 24.784 27.037 9.0254 
334 82.751 0.0000 77.556 37.667 18.741 55.262 
335 70.713 0.0000 62.002 25.828 13.094 34.108 
336 31.499 87.114 28.683 31.397 54.971 16.084 
337 2.3288 17.011 79.908 12.706 7.0803 57.983 
338 43.117 5.9153 28.054 8.6738 5.0772 7.3763 
339 66.399 24.775 3.8445 19.090 12.947 2.6322 
340 45.102 11.580 5.5654 8.5290 5.5376 1.8976 
341 95.720 95.730 15.934 70.420 84.334 15.474 
342 59.072 94.153 56.923 49.518 71.255 38.596 
343 67.627 93.678 7.1220 48.576 70.821 12.545 
344 61.658 59.300 0.0000 25.801 30.100 5.3108 
345 60.228 39.719 70.946 26.999 20.330 46.607 
346 29.103 60.397 0.20023 15.258 25.334 4.9607 
347 64.306 23.413 41.884 20.355 13.028 16.024 
348 43.717 85.857 5.1343 32.686 54.526 10.043 
349 22.344 67.667 57.543 22.573 33.354 33.337 
350 98.411 73.862 62.764 64.535 59.566 41.916 
351 39.185 50.328 49.468 17.618 20.543 23.492 
352 7.3136 29.055 99.411 21.322 13.046 94.694 
353 70.977 44.191 64.353 32.320 25.006 38.813 
354 74.581 6.5973 91.011 36.697 18.027 78.068 
355 85.717 27.822 58.230 37.356 22.434 31.168 
356 7.2929 62.433 21.151 14.226 26.012 8.5800 
357 7.4096 95.980 15.252 33.878 65.777 13.664 
358 60.351 32.945 24.784 18.208 14.429 7.3718 
359 15.441 21.894 58.739 8.6678 6.3909 30.121 
360 12.995 29.174 14.500 4.4062 6.3551 3.5855 
361 24.958 43.281 62.424 14.842 15.670 35.668 
362 26.132 40.701 92.388 23.078 17.899 81.377 
363 82.889 75.437 16.909 46.877 52.420 10.784 
364 10.035 61.810 73.360 22.340 28.845 51.847 
365 7.3750 73.456 44.669 21.924 37.650 22.710 
366 26.393 8.4417 91.592 18.229 8.5981 78.318 
367 3.6396 71.889 89.825 31.955 40.318 80.408 
368 41.032 69.231 66.709 29.395 37.777 44.318 
369 26.049 44.809 75.255 18.649 17.897 52.660 
370 44.253 78.038 39.902 30.305 45.846 20.497 
371 90.083 6.1842 31.521 34.845 18.550 10.194 
372 40.838 70.469 18.785 23.293 36.325 9.4034 
373 64.547 13.326 99.808 34.638 17.126 95.624 
374 16.057 89.770 50.432 33.518 58.451 30.807 
375 6.7498 33.208 34.052 6.1206 8.1805 11.010 
376 16.910 18.630 43.193 5.8122 4.6815 16.106 
377 94.453 82.809 28.267 61.131 66.158 16.495 
378 98.828 32.545 58.724 49.242 29.790 32.484 
379 57.493 60.839 95.635 40.619 36.817 90.482 
380 15.588 75.521 31.180 22.061 39.580 14.760 
381 27.966 50.067 36.344 13.138 18.313 13.884 
382 84.281 23.235 85.204 42.718 23.389 68.316 
383 39.064 5.2969 69.414 14.168 7.1017 42.679 
384 93.122 45.056 18.082 42.279 31.218 7.2297 
385 81.186 53.520 81.049 46.378 36.147 63.648 
386 47.691 44.969 2.3524 14.957 17.146 3.5521 
387 38.912 30.547 19.389 9.3670 9.2416 5.0763 
388 11.793 89.946 96.424 45.824 63.527 96.958 
389 17.137 70.443 3.9824 18.156 33.712 6.6996 
390 80.640 38.146 4.9037 30.426 22.482 3.9576 
391 69.435 95.432 73.817 59.813 77.531 59.921 
392 80.767 0.0000 17.075 26.630 14.164 4.5063 
393 3.5735 82.102 3.9692 23.829 46.397 8.8483 
394 54.772 36.125 87.584 28.685 19.382 72.464 
395 53.415 13.886 79.066 22.203 11.618 57.033 
396 85.784 26.582 39.416 34.184 20.862 15.155 
397 34.621 88.711 58.147 37.309 59.153 38.171 
398 5.7942 59.258 64.150 18.762 25.682 39.415 
399 23.963 84.565 89.779 41.127 56.018 82.870 
400 77.625 67.005 77.663 48.532 45.700 60.058 
401 72.614 69.115 16.018 36.660 42.224 9.1428 
402 77.591 89.736 46.929 55.051 69.583 28.885 
403 75.903 34.593 49.254 30.089 20.724 22.688 
404 11.349 6.7936 26.913 2.7556 2.0855 6.6329 
405 33.312 59.952 27.814 17.086 25.873 10.845 
406 65.678 9.2563 53.261 21.580 11.572 24.956 
407 82.773 93.660 7.7326 58.251 75.788 13.063 
408 4.9680 42.654 18.395 7.0557 12.063 5.4701 
409 82.247 54.267 16.583 36.710 32.799 7.4533 
410 48.118 48.368 34.639 17.857 19.957 12.986 
411 85.499 95.432 84.036 73.524 84.249 76.445 
412 55.826 4.6170 67.169 19.537 9.9020 40.036 
413 21.882 5.8437 13.222 3.0532 2.2750 2.6155 
414 87.018 70.931 92.455 62.083 55.007 86.614 
415 89.734 86.234 73.008 67.041 71.601 57.248 
416 73.734 71.451 91.105 52.606 50.575 83.689 
417 52.887 86.579 17.658 36.882 57.353 12.449 
418 94.893 87.424 3.2402 63.399 71.915 11.637 
419 34.656 68.806 94.811 36.119 39.932 89.674 
420 40.192 73.613 82.450 35.772 43.927 67.998 
421 92.143 50.656 94.811 58.538 40.404 88.586 
422 81.076 33.461 69.815 37.606 23.765 45.192 
423 56.000 89.508 38.485 41.905 62.703 22.233 
424 6.2161 35.848 59.261 10.488 10.800 31.435 
425 13.360 29.068 87.003 17.123 11.416 70.500 
426 33.334 17.093 51.243 9.6198 6.2788 22.714 
427 27.065 0.0000 60.024 9.1288 4.5322 31.125 
428 70.143 37.474 82.292 34.975 23.275 63.792 
429 93.381 52.836 4.6661 44.556 36.126 5.8276 
430 65.059 14.903 26.646 18.267 10.802 7.3903 
431 63.492 29.770 13.222 18.568 13.814 4.0258 
432 27.361 5.7928 36.175 5.5736 3.3820 11.302 
433 85.672 88.240 55.956 61.310 71.100 36.967 
434 82.609 20.253 0.0000 28.699 17.063 2.6417 
435 67.802 26.866 94.341 35.773 20.201 84.954 
436 91.320 52.917 45.707 45.950 36.530 22.021 
437 43.229 65.579 38.741 23.338 32.626 17.566 
438 23.064 23.250 69.185 12.138 8.1605 42.689 
439 51.400 20.261 91.704 26.161 14.058 79.167 
440 0.42178 57.762 81.457 22.626 26.249 63.649 
441 29.412 74.601 16.550 22.571 39.204 9.4266 
END_DATA
CTI1

DESCRIPTOR "Argyll Calibration Target chart information 1"
ORIGINATOR "Argyll targen"
KEYWORD "DENSITY_EXTREME_VALUES"
DENSITY_EXTREME_VALUES "8"
CREATED "April 3, 2009"

KEYWORD "INDEX"
NUMBER_OF_FIELDS 7
BEGIN_DATA_FORMAT
INDEX RGB_R RGB_G RGB_B XYZ_X XYZ_Y XYZ_Z 
END_DATA_FORMAT

NUMBER_OF_SETS 8
BEGIN_DATA
0 100.00 100.00 100.00 95.106 100.00 108.84 
1 0.0000 47.361 100.00 25.613 21.629 97.376 
2 100.00 0.0000 79.351 52.426 26.290 58.722 
3 0.0000 0.0000 58.997 6.4858 3.1940 29.894 
4 100.00 66.659 0.0000 56.059 50.505 7.6561 
5 0.0000 35.601 0.0000 4.6856 8.3702 2.2286 
6 84.444 0.0000 0.0000 28.843 15.356 2.3047 
7 0.0000 0.0000 0.0000 1.0000 1.0000 1.0000 
END_DATA
CTI1

DESCRIPTOR "Argyll Calibration Target chart information 1"
ORIGINATOR "Argyll targen"
KEYWORD "DEVICE_COMBINATION_VALUES"
DEVICE_COMBINATION_VALUES "9"
CREATED "April 3, 2009"

KEYWORD "INDEX"
NUMBER_OF_FIELDS 7
BEGIN_DATA_FORMAT
INDEX RGB_R RGB_G RGB_B XYZ_X XYZ_Y XYZ_Z 
END_DATA_FORMAT

NUMBER_OF_SETS 9
BEGIN_DATA
0 100.00 100.00 100.00 95.106 100.00 108.84 
1 0.0000 100.00 100.00 54.276 78.948 106.93 
2 100.00 0.0000 100.00 59.701 29.199 97.042 
3 0.0000 0.0000 100.00 18.871 8.1473 95.129 
4 100.00 100.00 0.0000 77.235 92.853 14.715 
5 0.0000 100.00 0.0000 36.405 71.801 12.802 
6 100.00 0.0000 0.0000 41.830 22.052 2.9132 
7 0.0000 0.0000 0.0000 1.0000 1.0000 1.0000 
8 60.000 60.000 60.000 30.977 32.536 35.353 
END_DATA
