static/misc/rgb-printer-1764.ti2
CTI2

DESCRIPTOR "Argyll Calibration Target chart information 2"
ORIGINATOR "Argyll printtarg"
CREATED "Fri Apr  3 14:51:30 2009"
KEYWORD "TARGET_INSTRUMENT"
TARGET_INSTRUMENT "GretagMacbeth i1 Pro"
KEYWORD "MULTI_DIM_STEPS"
MULTI_DIM_STEPS "2"
KEYWORD "APPROX_WHITE_POINT"
APPROX_WHITE_POINT "95.106486 100.000000 108.844025"
KEYWORD "COLOR_REP"
COLOR_REP "RGB"
KEYWORD "RANDOM_START"
RANDOM_START "1146"
KEYWORD "STEPS_IN_PASS"
STEPS_IN_PASS "21"
KEYWORD "PASSES_IN_STRIPS2"
PASSES_IN_STRIPS2 "21,21,21,21"
KEYWORD "STRIP_INDEX_PATTERN"
STRIP_INDEX_PATTERN "A-Z, A-Z"
KEYWORD "PATCH_INDEX_PATTERN"
PATCH_INDEX_PATTERN "0-9,@-9,@-9;1-999"
KEYWORD "INDEX_ORDER"
INDEX_ORDER "STRIP_THEN_PATCH"

KEYWORD "SAMPLE_LOC"
NUMBER_OF_FIELDS 8
BEGIN_DATA_FORMAT
SAMPLE_ID SAMPLE_LOC RGB_R RGB_G RGB_B XYZ_X XYZ_Y XYZ_Z 
END_DATA_FORMAT

NUMBER_OF_SETS 1764
BEGIN_DATA
1 "CA20" 100.00 100.00 100.00 95.106 100.00 108.84 
2 "Z8" 100.00 100.00 100.00 95.106 100.00 108.84 
3 "BM11" 100.00 100.00 100.00 95.106 100.00 108.84 
4 "BW16" 100.00 100.00 100.00 95.106 100.00 108.84 
5 "BE16" 0.0000 0.0000 0.0000 1.0000 1.0000 1.0000 
6 "AJ18" 100.00 0.0000 0.0000 41.830 22.052 2.9132 
7 "AR15" 0.0000 100.00 0.0000 36.405 71.801 12.802 
8 "BD15" 100.00 100.00 0.0000 77.235 92.853 14.715 
9 "B7" 0.0000 0.0000 100.00 18.871 8.1473 95.129 
10 "CF21" 100.00 0.0000 100.00 59.701 29.199 97.042 
11 "BV2" 0.0000 100.00 100.00 54.276 78.948 106.93 
12 "AX5" 50.117 51.553 51.195 21.907 23.331 25.315 
13 "K13" 0.13614 25.722 49.753 6.6941 6.3259 21.568 
14 "AI20" 50.403 3.6337 76.041 19.623 9.6357 52.174 
15 "CD3" 27.353 50.251 96.347 27.566 24.167 90.166 
16 "BO7" 25.514 49.362 0.30700 10.537 16.856 3.5806 
17 "BJ8" 24.062 99.838 49.180 41.893 74.009 32.289 
18 "AN18" 96.681 25.889 53.322 45.143 26.116 26.579 
19 "AM4" 49.269 3.6218 19.908 10.151 5.7979 4.5190 
20 "AA2" 77.316 49.279 95.655 47.337 33.922 89.610 
21 "C4" 96.064 79.131 53.246 63.514 63.685 32.792 
22 "W21" 78.807 53.400 3.4191 33.625 30.788 5.2796 
23 "BZ9" 51.717 94.351 7.2002 41.538 67.933 12.367 
24 "B4" 50.171 91.720 90.972 53.321 69.495 87.054 
25 "J11" 3.0658 63.518 34.181 15.594 27.305 14.273 
26 "X7" 1.5790 67.668 74.972 25.091 34.175 55.049 
27 "X17" 61.567 100.00 42.332 52.848 79.969 27.547 
28 "A4" 53.996 26.770 95.460 29.469 16.880 86.870 
29 "L10" 25.811 3.4522 46.940 6.6453 3.6650 18.719 
30 "BN19" 72.304 2.4646 47.435 24.142 12.637 19.928 
31 "BO21" 29.221 30.798 70.051 14.589 11.138 44.281 
32 "AI3" 68.604 72.209 71.256 43.817 47.340 51.357 
33 "AA15" 69.755 28.070 69.275 29.240 18.021 43.809 
34 "BR8" 29.014 28.268 30.794 7.4747 7.5918 9.1672 
35 "O1" 32.116 75.250 30.580 24.435 40.587 14.541 
36 "BD11" 71.074 29.176 30.547 23.731 16.201 9.8553 
37 "S7" 33.087 71.970 70.815 29.741 39.910 50.065 
38 "BD6" 79.631 79.814 20.039 47.261 56.346 12.360 
39 "BP16" 3.4943 30.475 87.663 17.047 11.713 71.737 
40 "AW19" 51.461 31.787 2.7940 13.258 11.645 2.6119 
41 "R8" 100.00 50.351 69.286 57.349 40.567 46.695 
42 "B1" 100.00 50.865 31.346 51.126 38.352 13.073 
43 "T20" 2.6955 32.597 12.004 4.3968 7.2825 3.2911 
44 "AD21" 2.9938 1.6509 67.111 8.4303 4.0550 39.419 
45 "BW8" 82.141 100.00 71.978 71.086 88.697 58.896 
46 "BZ14" 0.65608 97.101 30.269 35.469 67.765 19.059 
47 "CF19" 0.73538 67.417 3.9186 15.667 30.209 6.1499 
48 "BS5" 3.4588 97.521 66.131 41.607 70.752 49.320 
49 "AX14" 98.079 0.0000 31.220 41.488 21.712 10.307 
50 "T3" 31.903 4.2900 97.867 21.524 9.7886 90.824 
51 "B21" 94.680 0.0000 70.889 45.296 22.887 46.061 
52 "CA19" 66.714 4.0988 98.272 34.727 16.570 92.278 
53 "CD4" 19.517 52.105 52.341 14.801 19.925 26.070 
54 "BW15" 99.740 31.351 12.558 44.684 27.703 5.2086 
55 "Z10" 0.0000 1.3183 33.690 2.6955 1.7359 9.7523 
56 "G7" 27.131 12.487 3.6954 4.0011 3.2942 1.5528 
57 "AX20" 50.748 48.539 79.279 27.707 24.096 59.487 
58 "T11" 52.743 62.619 8.7989 23.351 30.897 6.3675 
59 "AQ2" 73.780 80.062 100.00 60.854 61.577 103.23 
60 "AW12" 97.202 28.742 89.559 55.574 31.058 76.887 
61 "AB7" 48.433 18.702 48.577 13.787 8.7117 20.657 
62 "AH6" 20.743 81.247 100.00 42.454 53.157 102.58 
63 "AH19" 67.147 8.5177 0.0000 17.955 10.156 1.8743 
64 "X8" 100.00 71.202 0.0000 58.304 54.995 8.4046 
65 "D3" 95.531 98.524 29.480 73.294 88.927 20.788 
66 "O4" 79.071 55.634 50.070 38.411 34.030 25.520 
67 "L12" 23.010 96.253 15.994 35.621 66.983 13.971 
68 "AD16" 98.503 76.076 80.778 70.581 63.946 67.302 
69 "F20" 50.450 98.006 66.299 50.827 76.063 50.067 
70 "G4" 29.302 76.974 2.2106 23.489 41.691 7.8304 
71 "AP19" 59.517 73.370 38.495 33.581 43.686 19.007 
72 "AD9" 25.388 100.00 80.838 49.593 77.323 71.086 
73 "J10" 2.0743 62.162 100.00 31.129 32.563 99.196 
74 "I18" 46.890 65.872 97.898 39.497 39.447 95.666 
75 "AM3" 12.733 75.782 52.345 24.763 40.864 29.591 
76 "U4" 50.866 46.417 22.486 17.266 18.884 7.4727 
77 "E12" 77.731 98.613 3.2099 58.456 81.523 13.750 
78 "Z12" 25.336 6.6140 77.364 13.339 6.4956 53.887 
79 "CC15" 26.698 1.3787 24.442 4.2734 2.6432 5.7049 
80 "CB10" 76.826 22.963 100.00 42.912 22.807 96.693 
81 "AN10" 0.80428 44.472 65.480 13.820 15.555 39.327 
82 "Z17" 19.593 54.622 23.867 12.313 20.364 8.4947 
83 "BI7" 75.814 6.8477 25.511 24.008 13.059 7.0763 
84 "R20" 20.568 28.245 94.004 20.251 12.537 83.629 
85 "AE18" 41.828 94.894 32.605 39.946 67.549 19.928 
86 "CF17" 73.383 5.8302 72.833 30.233 15.310 48.074 
87 "CD12" 73.417 53.015 27.077 31.011 29.120 10.431 
88 "BG11" 21.552 51.018 78.732 20.885 21.797 58.548 
89 "AT4" 96.173 61.402 97.988 67.296 50.819 96.584 
90 "S20" 3.2898 43.585 34.523 8.4927 13.037 12.079 
91 "J8" 72.543 72.970 2.8684 38.245 46.022 7.9371 
92 "CD15" 76.045 46.002 73.474 38.257 28.578 51.119 
93 "BI6" 12.944 78.594 18.549 22.680 42.610 10.585 
94 "CB18" 42.878 79.713 50.364 32.378 48.203 28.830 
95 "BA8" 76.716 26.751 7.5718 25.621 16.737 3.3649 
96 "D8" 85.765 98.050 48.963 67.345 85.029 32.892 
97 "AK5" 47.846 23.502 78.295 20.825 12.402 56.060 
98 "BC6" 70.121 96.514 87.741 65.311 81.097 82.728 
99 "AH17" 20.672 22.796 50.230 7.8065 6.2956 21.917 
100 "AL6" 90.711 20.793 71.211 43.307 23.723 46.765 
101 "BS17" 10.338 19.303 66.977 9.7858 6.3180 39.615 
102 "AP15" 67.856 97.843 22.780 52.520 77.480 17.025 
103 "AZ17" 100.00 75.620 27.556 61.777 60.176 15.004 
104 "D16" 8.9342 86.529 85.645 39.434 57.218 75.783 
105 "AI1" 21.202 31.385 9.0670 5.5064 7.5242 2.8311 
106 "BW18" 73.302 81.197 52.757 47.672 57.372 31.952 
107 "AJ3" 77.322 22.921 49.498 29.105 17.315 22.290 
108 "AZ18" 7.6237 23.933 28.903 4.1421 4.9341 7.9579 
109 "AC21" 86.742 21.840 30.121 33.285 19.550 9.7982 
110 "AX18" 50.545 4.0795 3.3389 10.105 5.8550 1.6998 
111 "AL2" 64.929 67.038 89.953 44.944 43.415 80.558 
112 "BJ21" 60.469 46.196 100.00 38.493 27.749 97.879 
113 "AZ10" 96.558 52.818 10.225 47.426 37.582 6.5884 
114 "AZ20" 51.963 1.0187 42.245 13.193 7.0199 15.494 
115 "AJ21" 3.6408 50.760 0.87941 8.9570 16.721 3.6794 
116 "BM7" 40.960 21.524 17.194 8.4984 6.8141 4.0719 
117 "BO6" 50.730 76.746 82.408 41.031 49.213 68.671 
118 "T6" 87.242 70.577 67.655 54.542 51.722 46.882 
119 "AB6" 0.20968 60.572 52.463 16.768 25.731 27.200 
120 "Z18" 87.116 39.304 40.397 37.827 26.436 16.681 
121 "S11" 59.634 77.855 16.840 34.377 48.011 10.574 
122 "BY10" 35.842 11.126 33.515 7.3720 4.7187 9.9893 
123 "CE2" 12.327 12.589 12.501 2.3431 2.4258 2.5491 
124 "AI14" 100.00 61.758 53.140 58.214 47.831 29.912 
125 "CA10" 22.801 86.378 37.827 30.255 53.548 20.672 
126 "W13" 33.001 98.123 96.492 55.023 77.278 99.265 
127 "AW6" 38.929 63.011 45.471 21.804 30.011 21.853 
128 "AA7" 65.786 40.148 50.994 25.669 20.294 24.351 
129 "BM2" 48.071 9.6790 92.130 24.203 11.748 79.637 
130 "BI10" 51.178 64.497 64.614 30.121 34.869 41.145 
131 "I19" 94.561 5.7936 49.916 40.936 21.397 22.814 
132 "AK4" 8.7587 6.7259 50.210 5.3957 3.1180 21.414 
133 "AB2" 85.637 40.886 61.088 40.587 28.038 35.183 
134 "BM15" 88.107 40.283 20.406 37.031 26.593 7.2638 
135 "N20" 89.562 13.856 88.683 47.013 24.048 74.380 
136 "BX18" 10.606 13.288 89.653 15.961 7.9363 74.682 
137 "BY8" 38.187 48.342 65.752 19.934 20.414 40.276 
138 "D4" 34.039 40.494 47.209 13.080 14.003 20.592 
139 "AM6" 59.440 21.908 17.854 15.614 10.548 4.5849 
140 "AW15" 81.275 35.275 82.874 41.844 26.074 64.934 
141 "BY4" 65.059 90.856 67.757 52.478 68.951 50.447 
142 "AA13" 30.374 65.258 86.952 30.659 34.933 74.236 
143 "BB5" 80.909 68.828 36.712 43.548 45.381 17.723 
144 "O12" 60.297 10.455 61.824 20.609 10.972 33.770 
145 "S17" 38.005 37.103 90.689 24.206 17.271 77.975 
146 "AW3" 37.436 10.089 61.593 12.111 6.5650 33.106 
147 "B10" 85.282 96.368 16.782 62.447 80.941 15.438 
148 "B18" 84.670 64.211 85.827 54.749 46.689 73.260 
149 "BA13" 1.6624 89.893 50.632 32.786 58.198 30.973 
150 "H14" 30.905 64.392 13.664 17.654 29.112 7.1119 
151 "AC10" 100.00 84.628 16.637 66.513 70.738 13.220 
152 "BM10" 62.236 44.701 9.3712 21.216 20.244 4.5002 
153 "BQ8" 0.0000 53.201 18.106 10.161 18.534 6.4792 
154 "L21" 89.837 13.359 10.498 33.780 18.722 3.7075 
155 "V7" 3.6006 51.080 85.424 21.558 21.932 69.529 
156 "Z20" 53.980 33.954 60.281 20.412 15.302 32.891 
157 "Y13" 63.520 34.058 86.291 31.905 20.445 70.209 
158 "K16" 97.070 86.579 66.472 71.840 74.606 48.895 
159 "P17" 38.330 40.932 11.863 11.133 13.528 4.1175 
160 "R7" 23.247 88.365 64.703 36.273 58.105 45.414 
161 "BV7" 78.541 82.064 80.922 58.367 62.896 67.975 
162 "BG15" 18.886 67.293 39.594 19.069 31.612 18.141 
163 "D10" 96.226 44.570 91.091 58.792 37.909 80.893 
164 "H17" 49.974 25.649 32.663 13.181 9.9125 10.241 
165 "BS9" 86.850 63.282 18.525 43.859 41.861 9.3183 
166 "AX11" 96.131 81.388 97.467 77.407 71.424 98.951 
167 "BL13" 86.433 87.869 2.6488 56.788 68.954 11.371 
168 "BF2" 47.386 64.550 27.200 23.109 31.941 11.442 
169 "S1" 9.7488 86.155 0.45368 26.660 51.719 9.4717 
170 "W5" 32.207 98.949 4.2854 39.080 71.925 12.996 
171 "BG21" 35.101 85.681 16.716 30.500 53.186 11.748 
172 "BK10" 34.876 51.131 31.380 14.461 19.580 11.397 
173 "I10" 66.828 17.284 89.321 32.229 16.829 74.931 
174 "O16" 33.402 84.038 85.429 41.116 55.682 75.022 
175 "CF16" 0.0000 78.283 98.558 38.653 48.635 98.859 
176 "BW10" 13.472 38.208 41.925 8.5593 10.934 16.269 
177 "AU9" 64.629 13.823 37.982 19.054 10.956 13.135 
178 "AM18" 10.681 40.524 100.00 24.160 18.051 96.762 
179 "AB4" 10.552 66.314 87.838 28.830 34.684 75.864 
180 "V16" 89.343 86.216 36.240 59.853 68.671 21.083 
181 "B14" 15.860 33.890 60.653 11.042 10.442 32.858 
182 "BY9" 35.210 14.727 87.875 19.158 9.8180 71.640 
183 "AD4" 99.658 96.469 78.247 84.408 91.241 67.855 
184 "BZ16" 16.599 60.870 8.5952 13.742 24.830 5.6764 
185 "U13" 62.858 66.501 53.250 33.949 38.488 29.490 
186 "BP20" 13.528 34.509 81.511 16.379 12.755 61.461 
187 "BS3" 0.0000 91.273 16.649 30.200 58.717 12.815 
188 "AO7" 15.573 67.339 68.587 24.059 33.602 46.190 
189 "BT11" 4.4038 18.746 4.3963 2.2391 3.1730 1.6741 
190 "BJ15" 92.595 40.237 1.9229 40.077 28.214 4.3345 
191 "BP17" 59.690 80.538 96.655 52.103 57.645 95.962 
192 "BQ4" 49.699 100.00 48.840 48.667 77.702 32.358 
193 "A18" 13.624 40.723 21.631 7.2498 11.394 6.2763 
194 "L14" 58.573 77.999 1.5518 33.556 47.759 8.4237 
195 "AR12" 59.003 48.953 66.236 27.857 24.773 41.299 
196 "BX9" 70.351 87.557 32.054 47.192 63.524 18.490 
197 "BJ18" 4.6117 17.484 95.868 18.297 9.3961 86.833 
198 "I20" 53.469 81.262 66.982 40.511 53.396 47.090 
199 "AK12" 14.203 10.529 35.333 3.9438 2.8768 10.808 
200 "N9" 60.154 46.169 36.023 22.369 21.270 13.782 
201 "BM20" 9.4494 82.141 69.981 32.063 49.759 50.723 
202 "BB4" 86.982 36.397 97.319 51.425 30.783 92.170 
203 "AK3" 71.020 61.031 11.774 31.831 34.248 7.0119 
204 "BZ8" 80.745 10.338 63.005 32.887 17.262 35.697 
205 "S8" 63.295 0.0000 15.902 16.021 8.7000 3.7322 
206 "AS12" 100.00 35.148 71.122 53.714 32.546 47.797 
207 "AQ20" 25.927 16.436 22.348 4.7795 4.0762 5.2265 
208 "T19" 21.444 10.987 58.757 8.3912 4.7928 29.847 
209 "CF10" 3.5220 44.379 48.593 10.573 14.224 21.904 
210 "O21" 99.868 34.925 28.818 46.456 29.554 10.444 
211 "CA2" 85.811 94.982 95.409 77.428 85.294 97.448 
212 "BS2" 100.00 44.468 50.739 51.669 35.410 25.674 
213 "AB16" 57.000 96.822 81.063 56.638 77.228 71.060 
214 "AA21" 57.593 16.184 3.0532 13.725 8.7351 2.0443 
215 "BR5" 15.908 96.872 91.703 49.508 73.196 89.352 
216 "B19" 50.551 81.577 28.660 33.479 50.759 15.151 
217 "BQ3" 3.4533 81.436 36.114 25.276 46.317 18.516 
218 "L18" 16.405 4.3108 3.8730 2.1105 1.7421 1.3656 
219 "BY16" 84.808 85.414 65.605 60.819 67.807 47.090 
220 "F1" 35.145 27.648 1.5097 7.3586 7.5407 2.0371 
221 "AS6" 30.953 79.966 45.903 28.727 46.627 25.030 
222 "AT3" 14.042 99.163 0.0000 36.448 70.828 12.612 
223 "BA19" 72.636 87.629 8.7649 47.254 63.784 11.452 
224 "AV15" 37.889 98.970 82.195 51.890 77.235 73.157 
225 "AC13" 38.922 4.7361 12.674 6.5152 4.0079 2.6660 
226 "AT2" 52.327 33.991 43.483 16.827 13.802 17.497 
227 "AY15" 100.00 18.003 96.930 59.442 30.638 90.923 
228 "AX10" 78.062 97.087 29.812 58.731 79.748 19.935 
229 "BQ10" 42.985 52.698 0.63074 15.820 21.244 4.1729 
230 "F16" 41.834 51.283 95.561 31.089 26.531 88.849 
231 "M20" 37.406 62.919 77.304 28.227 32.467 58.026 
232 "A11" 80.479 10.264 40.289 28.768 15.587 14.992 
233 "AM9" 60.543 82.058 47.592 40.340 54.478 27.279 
234 "BE2" 36.789 26.160 55.610 12.341 9.2136 27.255 
235 "G11" 16.020 3.5306 94.791 17.822 7.9867 84.432 
236 "AJ4" 37.380 88.625 66.826 39.852 60.157 48.234 
237 "O15" 63.535 22.941 52.895 21.600 13.382 24.961 
238 "V5" 28.520 59.782 61.870 20.979 27.201 36.937 
239 "AV19" 42.032 82.824 100.00 48.009 57.473 103.12 
240 "BR10" 42.730 35.020 77.070 20.726 15.309 54.755 
241 "AG15" 95.508 20.431 2.3591 39.035 22.418 3.3021 
242 "X16" 97.717 64.023 81.506 64.007 51.498 66.423 
243 "E6" 12.706 96.984 44.651 37.626 68.550 27.834 
244 "BY2" 21.591 77.052 75.832 31.786 44.932 58.038 
245 "U14" 93.837 0.0000 11.714 36.568 19.313 3.8693 
246 "L1" 60.324 0.0000 82.926 25.860 12.465 63.235 
247 "BL10" 0.0000 2.3701 83.439 12.927 5.8740 63.501 
248 "G13" 28.133 98.215 32.994 39.201 70.950 20.824 
249 "AB21" 84.968 67.083 4.4778 43.726 44.438 7.4608 
250 "BM9" 62.830 83.612 83.707 50.954 60.415 72.477 
251 "AN11" 68.092 66.939 24.841 33.461 38.947 11.322 
252 "CE11" 83.629 52.853 36.595 38.758 32.925 15.503 
253 "AU14" 10.204 51.528 38.611 11.715 18.274 15.326 
254 "BM8" 3.3756 71.737 15.891 18.246 34.708 8.6328 
255 "BP11" 12.684 94.550 57.836 38.026 65.748 39.081 
256 "O9" 100.00 93.405 42.876 74.905 83.791 27.510 
257 "BX12" 19.382 19.580 79.402 14.012 8.1531 57.324 
258 "AD19" 85.167 5.4381 98.144 46.662 22.791 92.584 
259 "K6" 65.279 49.585 86.633 37.019 29.124 72.217 
260 "AU21" 96.867 4.2024 85.995 51.792 25.891 69.695 
261 "AK15" 0.0000 96.984 83.886 46.031 71.842 75.244 
262 "BJ16" 76.998 20.506 77.879 35.016 19.187 55.983 
263 "I1" 3.0954 0.28671 17.814 1.5828 1.2570 3.5202 
264 "K1" 49.238 97.367 22.933 43.544 72.299 16.550 
265 "AC8" 70.823 38.910 19.767 24.791 19.787 6.4074 
266 "CF4" 61.726 2.1758 31.715 16.369 8.8435 9.3888 
267 "E2" 37.464 23.653 96.795 23.939 13.307 89.172 
268 "AP3" 40.453 76.655 7.3070 26.095 42.757 8.3325 
269 "BW7" 73.385 65.048 97.428 51.643 45.167 95.159 
270 "AX21" 10.739 33.817 0.17955 4.7734 7.8626 2.1390 
271 "Q13" 11.288 93.950 24.035 33.064 63.037 15.699 
272 "BK11" 38.290 2.2113 86.993 19.041 8.8846 69.892 
273 "AR4" 82.767 2.4926 3.2990 27.726 14.876 2.5101 
274 "CE3" 71.540 37.776 97.580 41.273 26.000 92.320 
275 "CC5" 15.264 44.828 12.946 8.0900 13.518 4.4687 
276 "AF19" 100.00 14.821 18.611 43.027 23.618 5.8641 
277 "AV4" 49.423 72.041 48.934 30.084 40.670 26.267 
278 "BU19" 97.068 14.788 63.679 46.327 24.625 37.200 
279 "BV5" 68.336 61.287 37.362 32.213 34.394 16.588 
280 "C8" 19.858 61.865 100.00 32.269 32.960 99.213 
281 "AO11" 62.312 57.184 73.690 34.262 32.175 52.331 
282 "G12" 86.493 57.278 65.154 47.403 39.253 41.735 
283 "AW21" 30.305 45.304 21.264 10.846 15.097 6.6858 
284 "AR3" 86.573 68.915 54.264 50.339 48.647 31.551 
285 "AY13" 65.594 32.931 4.3209 20.030 15.461 3.1031 
286 "BP7" 50.564 34.115 15.888 13.716 12.519 4.5875 
287 "AI9" 40.862 3.2048 47.014 10.113 5.4413 18.939 
288 "BS21" 100.00 71.158 15.184 58.640 55.094 10.283 
289 "AV21" 78.111 21.744 21.928 26.445 16.077 6.2647 
290 "X12" 11.912 55.570 62.618 17.329 22.844 37.145 
291 "Q15" 71.256 97.898 55.045 58.480 80.159 37.963 
292 "BL17" 31.593 50.722 81.383 23.354 22.830 62.831 
293 "F19" 38.301 24.007 43.687 10.478 8.0250 16.865 
294 "BN21" 49.323 17.132 61.937 16.471 9.5772 33.848 
295 "AI13" 24.833 65.487 25.997 17.713 29.807 10.830 
296 "S18" 0.0000 13.135 22.089 2.2668 2.3899 4.9484 
297 "P1" 44.137 51.647 13.684 16.113 20.822 5.5968 
298 "J1" 15.612 22.537 2.6831 3.3679 4.4007 1.7263 
299 "BM18" 98.145 12.464 37.413 42.697 23.011 13.870 
300 "BP18" 36.683 18.359 70.685 14.704 8.6025 44.638 
301 "BU11" 55.115 59.547 37.423 24.955 29.574 16.077 
302 "U9" 29.768 97.608 61.299 43.420 71.913 43.739 
303 "BK15" 51.735 1.0136 54.239 15.001 7.7324 25.490 
304 "BP9" 61.712 16.115 74.231 24.751 13.360 49.975 
305 "V8" 56.432 90.743 31.885 42.254 64.250 18.806 
306 "AL14" 53.600 12.637 34.891 13.464 7.9877 11.046 
307 "AR6" 50.510 62.199 84.610 34.382 34.915 69.961 
308 "R17" 0.0000 15.968 38.368 3.9506 3.4206 12.715 
309 "Y4" 38.681 99.816 15.276 41.674 74.256 14.895 
310 "BG3" 87.053 45.175 74.046 45.987 32.187 52.225 
311 "BO12" 23.623 85.889 9.2160 28.102 52.183 10.282 
312 "H8" 90.228 86.744 88.936 72.685 74.446 83.218 
313 "AX12" 17.280 16.062 97.765 19.791 9.8879 90.723 
314 "AS4" 14.132 92.171 75.133 40.520 63.960 60.221 
315 "BN6" 74.617 59.835 63.577 39.770 36.879 39.791 
316 "AF15" 0.0000 32.016 70.868 12.189 10.211 45.329 
317 "J20" 2.7292 71.503 58.691 23.139 36.468 35.113 
318 "I7" 41.258 38.480 36.321 13.067 13.432 12.932 
319 "AY3" 96.439 15.134 79.711 50.009 26.078 59.374 
320 "AV7" 36.062 90.809 41.687 36.406 61.177 24.337 
321 "Q7" 71.679 13.411 14.136 21.171 12.212 3.7585 
322 "AG9" 1.8372 12.222 62.519 7.7801 4.5013 33.993 
323 "AO19" 93.901 95.509 55.625 73.111 84.959 38.691 
324 "X9" 15.669 54.302 89.959 24.987 25.196 78.105 
325 "Q6" 62.863 90.435 97.092 60.309 71.476 99.092 
326 "AI6" 85.754 26.661 0.96072 31.885 19.959 3.1026 
327 "BI17" 75.205 41.920 36.452 29.614 23.237 14.030 
328 "BO13" 93.400 63.228 40.544 51.068 45.319 19.727 
329 "BD8" 35.594 28.155 83.643 19.458 12.523 64.784 
330 "BL7" 63.483 53.094 50.370 28.247 27.410 25.039 
331 "BB19" 22.092 19.518 34.413 5.4866 4.7744 10.582 
332 "AN19" 11.995 10.922 76.388 11.684 5.9883 52.406 
333 "BV9" 58.418 55.265 21.169 23.343 26.424 8.1845 
334 "BS15" 87.977 0.0000 80.038 42.342 21.067 59.329 
335 "Q20" 72.741 2.8346 59.966 26.690 13.703 31.907 
336 "AQ5" 33.327 87.582 28.341 32.089 55.800 16.058 
337 "BY7" 3.3078 19.008 81.395 13.388 7.6715 60.448 
338 "AB11" 37.298 0.0000 28.748 6.8846 3.8952 7.5444 
339 "CC18" 66.972 21.969 0.0000 18.981 12.351 2.2440 
340 "BF14" 42.053 13.020 3.6983 7.6262 5.2179 1.7334 
341 "BU3" 98.440 99.617 12.003 75.733 91.594 15.808 
342 "A17" 57.014 97.436 56.470 50.987 75.729 38.922 
343 "O5" 61.814 98.053 11.896 48.981 75.960 14.181 
344 "BG12" 60.362 57.162 4.1065 24.377 28.097 5.2971 
345 "T12" 56.019 38.678 71.140 24.871 18.853 46.699 
346 "BH10" 28.949 63.816 0.17154 16.705 28.272 5.4496 
347 "CD17" 63.683 23.683 41.639 20.036 12.921 15.850 
348 "N6" 38.132 84.052 2.5773 29.833 51.320 9.3816 
349 "CF5" 21.634 64.647 52.212 20.065 30.076 27.634 
350 "CB16" 98.286 74.487 61.950 64.583 60.115 41.084 
351 "AK6" 36.701 51.450 49.786 17.380 20.973 23.861 
352 "BH18" 11.188 26.731 100.00 21.416 12.511 95.837 
353 "CC13" 72.326 39.398 62.979 31.563 22.788 36.803 
354 "BS7" 73.515 8.9804 87.780 35.003 17.441 72.107 
355 "N4" 86.569 24.994 56.852 37.306 21.806 29.622 
356 "AS13" 11.694 62.326 26.125 14.780 26.191 10.336 
357 "BQ21" 10.765 99.833 10.742 36.931 71.849 13.834 
358 "V20" 56.890 33.716 25.623 16.820 13.934 7.6670 
359 "AI12" 9.2179 19.260 53.526 6.8881 5.1437 24.738 
360 "BZ21" 11.698 27.129 14.196 3.9615 5.6334 3.4073 
361 "P3" 26.723 46.695 67.777 17.362 18.280 42.541 
362 "R21" 25.877 39.983 90.923 22.324 17.305 78.520 
363 "AZ21" 89.879 79.627 10.406 54.399 59.908 10.558 
364 "W18" 11.317 59.064 77.034 22.307 27.009 56.875 
365 "CE6" 3.0633 71.857 43.472 20.743 35.806 21.530 
366 "BV4" 22.811 9.5293 89.292 16.890 8.0830 73.997 
367 "BO15" 1.4790 74.540 84.802 31.597 42.434 71.886 
368 "BY20" 39.791 73.483 58.063 29.337 41.228 35.043 
369 "AA5" 30.967 41.210 76.846 19.060 16.607 54.755 
370 "D7" 41.104 74.441 40.984 27.439 41.344 20.499 
371 "AC6" 86.993 10.248 25.277 32.072 17.460 7.4120 
372 "BF6" 43.390 72.450 19.972 25.161 38.804 10.118 
373 "BC18" 62.848 17.395 97.308 33.106 16.954 90.444 
374 "CD11" 19.090 87.744 49.897 32.371 55.803 29.891 
375 "N17" 0.11723 31.235 34.956 5.6097 7.3473 11.372 
376 "BG1" 15.209 19.603 40.899 5.4376 4.6753 14.523 
377 "A9" 93.620 88.308 23.633 63.675 72.858 15.840 
378 "BR16" 95.857 33.190 61.094 47.199 28.866 35.001 
379 "AG18" 57.721 60.748 97.951 41.586 37.154 95.224 
380 "BP2" 12.303 73.909 31.462 20.917 37.674 14.590 
381 "BW3" 24.871 43.452 31.519 10.110 13.851 10.588 
382 "BU10" 86.936 24.355 90.173 46.574 25.403 77.404 
383 "CF11" 37.458 2.2386 73.935 14.832 7.1765 48.880 
384 "BL19" 96.842 37.823 18.361 43.645 29.136 6.8295 
385 "CC4" 83.908 52.325 83.755 48.772 36.659 68.087 
386 "AR1" 49.207 44.000 0.0000 15.201 16.868 3.3151 
387 "BV3" 38.270 31.788 21.763 9.5551 9.6606 5.8624 
388 "AX17" 10.800 84.249 100.00 43.351 56.415 103.16 
389 "AA1" 13.015 72.733 0.0000 18.901 35.867 6.7875 
390 "BE21" 81.320 36.745 1.9894 30.542 22.071 3.6557 
391 "BE18" 72.384 100.00 76.517 65.879 85.868 65.164 
392 "AF13" 83.020 2.7093 15.508 28.242 15.113 4.2375 
393 "AT21" 0.45107 79.535 6.3566 22.209 43.241 8.5303 
394 "J18" 49.159 30.385 84.749 24.372 15.579 66.993 
395 "BZ2" 51.121 10.277 80.895 21.603 10.893 59.829 
396 "AL8" 83.308 26.988 37.937 32.226 19.965 14.153 
397 "CD14" 34.580 90.008 57.802 38.130 60.921 38.108 
398 "T14" 1.7830 56.569 67.614 18.380 23.814 43.347 
399 "AH8" 22.791 90.381 87.782 44.181 63.498 80.517 
400 "BL9" 73.822 65.129 76.444 44.853 42.542 57.799 
401 "AA4" 74.584 70.394 13.786 38.434 44.102 8.9350 
402 "G8" 74.089 90.162 43.845 52.637 68.833 26.498 
403 "BD19" 77.652 36.753 47.353 31.400 22.126 21.311 
404 "AO1" 11.066 4.8623 24.279 2.4736 1.8609 5.5893 
405 "AM21" 35.687 60.437 24.194 17.584 26.460 9.5108 
406 "C9" 67.574 12.221 48.761 22.025 12.148 21.040 
407 "AK7" 84.976 100.00 6.0709 64.733 86.396 14.593 
408 "BR1" 3.5573 40.400 18.249 6.4153 10.864 5.2337 
409 "W4" 80.542 54.363 18.493 35.630 32.283 7.8944 
410 "N11" 49.051 47.257 35.208 17.913 19.469 13.205 
411 "L15" 80.211 100.00 83.907 73.219 89.392 77.236 
412 "AO9" 59.865 2.8303 70.777 22.225 11.110 44.850 
413 "BP5" 22.224 4.9155 12.095 3.0316 2.2223 2.4020 
414 "J12" 85.806 66.936 98.029 61.305 51.430 97.102 
415 "U11" 88.297 84.882 75.838 65.791 69.551 61.008 
416 "BI3" 73.411 75.742 89.178 54.033 54.818 80.854 
417 "S5" 47.906 89.447 17.790 36.937 60.276 13.044 
418 "R13" 99.739 86.291 0.24845 66.942 72.623 11.370 
419 "BV18" 32.356 68.047 96.818 35.988 39.224 93.586 
420 "B2" 40.632 72.240 88.465 37.157 43.327 78.226 
421 "AF2" 100.00 43.577 96.761 64.054 39.965 92.134 
422 "BF3" 81.399 30.938 71.412 37.764 23.085 47.207 
423 "AR21" 48.827 88.561 41.417 38.740 60.058 23.812 
424 "J19" 0.97210 34.724 61.157 10.468 10.389 33.439 
425 "AS20" 12.520 26.501 86.812 16.580 10.533 70.020 
426 "Q10" 33.110 16.318 51.496 9.5417 6.1290 22.916 
427 "AG20" 23.509 0.29693 59.716 8.4836 4.2190 30.762 
428 "X14" 70.449 38.316 77.113 33.788 23.133 55.641 
429 "BB6" 90.570 52.518 3.4110 42.089 34.691 5.5865 
430 "K4" 65.552 10.261 24.016 18.021 10.227 6.2905 
431 "E21" 62.779 33.031 14.194 18.845 14.849 4.4017 
432 "BI13" 27.781 1.6760 36.519 5.5688 3.1970 11.467 
433 "J4" 85.548 85.354 52.782 58.705 66.963 33.245 
434 "AE5" 81.102 15.828 3.0608 27.230 15.652 2.6688 
435 "O18" 64.835 24.512 96.643 34.700 19.035 89.402 
436 "BG5" 91.098 49.382 49.570 45.176 34.292 24.782 
