static/misc/rgb-printer-1323.ti2
CTI2

DESCRIPTOR "Argyll Calibration Target chart information 2"
ORIGINATOR "Argyll printtarg"
CREATED "Fri Apr  3 15:01:40 2009"
KEYWORD "TARGET_INSTRUMENT"
TARGET_INSTRUMENT "GretagMacbeth i1 Pro"
KEYWORD "MULTI_DIM_STEPS"
MULTI_DIM_STEPS "2"
KEYWORD "APPROX_WHITE_POINT"
APPROX_WHITE_POINT "95.106486 100.000000 108.844025"
KEYWORD "COLOR_REP"
COLOR_REP "RGB"
KEYWORD "RANDOM_START"
RANDOM_START "433"
KEYWORD "STEPS_IN_PASS"
STEPS_IN_PASS "21"
KEYWORD "PASSES_IN_STRIPS2"
PASSES_IN_STRIPS2 "21,21,21"
KEYWORD "STRIP_INDEX_PATTERN"
STRIP_INDEX_PATTERN "A-Z, A-Z"
KEYWORD "PATCH_INDEX_PATTERN"
PATCH_INDEX_PATTERN "0-9,@-9,@-9;1-999"
KEYWORD "INDEX_ORDER"
INDEX_ORDER "STRIP_THEN_PATCH"

KEYWORD "SAMPLE_LOC"
NUMBER_OF_FIELDS 8
BEGIN_DATA_FORMAT
SAMPLE_ID SAMPLE_LOC RGB_R RGB_G RGB_B XYZ_X XYZ_Y XYZ_Z 
END_DATA_FORMAT

NUMBER_OF_SETS 1323
BEGIN_DATA
1 "AL18" 100.00 100.00 100.00 95.106 100.00 108.84 
2 "AZ7" 100.00 100.00 100.00 95.106 100.00 108.84 
3 "BE10" 100.00 100.00 100.00 95.106 100.00 108.84 
4 "M5" 100.00 100.00 100.00 95.106 100.00 108.84 
5 "K18" 0.0000 0.0000 0.0000 1.0000 1.0000 1.0000 
6 "BH18" 100.00 0.0000 0.0000 41.830 22.052 2.9132 
7 "BJ1" 0.0000 100.00 0.0000 36.405 71.801 12.802 
8 "AA12" 100.00 100.00 0.0000 77.235 92.853 14.715 
9 "AU1" 0.0000 0.0000 100.00 18.871 8.1473 95.129 
10 "L8" 100.00 0.0000 100.00 59.701 29.199 97.042 
11 "AF11" 0.0000 100.00 100.00 54.276 78.948 106.93 
12 "AP8" 49.388 50.717 48.450 20.899 22.445 22.827 
13 "U8" 2.7099 23.786 49.868 6.5229 5.8326 21.581 
14 "AX11" 48.492 2.2209 76.673 19.052 9.2631 53.078 
15 "AT20" 29.276 51.455 95.912 28.164 25.093 89.433 
16 "BC1" 27.281 49.963 2.3805 11.069 17.417 3.8112 
17 "F9" 26.887 99.826 50.436 42.562 74.316 33.397 
18 "Y7" 96.226 26.223 47.098 43.754 25.593 21.124 
19 "Q2" 49.286 4.6142 21.209 10.261 5.8873 4.9221 
20 "A6" 77.775 52.590 96.061 48.908 36.363 90.815 
21 "B2" 95.442 80.130 50.718 63.125 64.420 30.652 
22 "AH11" 77.813 46.187 5.6854 30.638 25.752 4.6462 
23 "AB11" 50.404 93.582 7.0280 40.455 66.529 12.134 
24 "B17" 47.893 93.620 93.531 54.799 72.203 92.400 
25 "AQ7" 0.0000 68.154 31.491 17.391 31.466 13.591 
26 "AN10" 0.94413 64.371 74.693 23.452 31.051 54.126 
27 "M21" 61.022 100.00 43.351 52.720 79.887 28.267 
28 "R19" 52.300 27.465 96.256 29.191 16.862 88.484 
29 "BG18" 26.921 2.9837 47.691 6.9413 3.7851 19.334 
30 "B18" 71.935 1.8297 49.731 24.268 12.634 21.841 
31 "BB17" 27.705 31.558 68.810 14.129 11.144 42.669 
32 "AW17" 65.380 73.672 71.639 42.924 48.023 52.061 
33 "BC18" 69.456 28.108 69.526 29.136 17.969 44.136 
34 "K16" 29.237 29.813 29.199 7.6378 8.0790 8.5130 
35 "AK11" 34.336 68.166 29.629 21.171 33.443 12.891 
36 "F16" 71.375 29.250 30.879 23.953 16.330 10.027 
37 "AM11" 35.201 72.326 69.239 30.025 40.380 48.037 
38 "BA4" 79.072 81.066 21.256 47.705 57.691 12.964 
39 "C9" 2.8632 28.473 85.894 16.087 10.777 68.480 
40 "Z21" 52.043 28.816 0.30996 12.926 10.696 2.2660 
41 "H6" 100.00 50.725 63.959 56.202 40.307 40.039 
42 "BD1" 99.765 51.928 34.344 51.564 39.079 14.740 
43 "V17" 2.6756 31.894 12.445 4.2766 7.0195 3.3240 
44 "G9" 3.1462 3.2102 67.643 8.6066 4.1944 40.112 
45 "BG6" 87.407 99.877 69.587 74.302 90.279 55.796 
46 "AG14" 0.0000 98.530 31.080 36.639 70.018 19.819 
47 "AO9" 0.10115 66.464 4.2377 15.198 29.294 6.0215 
48 "AM5" 2.2731 95.728 67.838 40.600 68.137 51.019 
49 "AM14" 94.517 2.4512 32.247 38.505 20.262 10.694 
50 "AP5" 32.409 3.1111 100.00 22.457 10.123 95.321 
51 "Q13" 95.848 3.0359 68.489 45.789 23.335 42.937 
52 "T10" 69.652 4.3601 100.00 37.081 17.714 96.017 
53 "BE20" 20.194 52.119 50.098 14.509 19.826 24.061 
54 "U3" 99.188 29.895 12.465 43.910 26.916 5.0808 
55 "BG21" 2.3373 5.9136 30.996 2.6429 1.9379 8.4276 
56 "AV10" 29.156 14.039 2.8087 4.4799 3.7078 1.5431 
57 "BE17" 50.618 49.786 80.606 28.458 25.031 61.733 
58 "AS15" 50.501 62.560 7.0881 22.404 30.375 6.1128 
59 "AK20" 74.163 81.546 98.101 61.233 63.200 99.528 
60 "BC13" 97.940 26.978 87.727 55.319 30.579 73.478 
61 "R5" 47.713 19.888 49.517 13.805 8.8904 21.486 
62 "C2" 22.508 80.618 100.00 42.315 52.517 102.46 
63 "M1" 68.981 7.0714 0.19329 18.922 10.559 1.9152 
64 "K20" 96.318 69.826 0.10973 54.268 51.875 8.0228 
65 "K11" 97.880 97.590 32.021 74.879 88.630 21.861 
66 "AS2" 79.046 55.586 50.221 38.400 33.995 25.645 
67 "T16" 29.130 97.280 17.615 37.539 69.138 14.679 
68 "AA11" 95.517 76.710 80.844 68.295 63.296 67.403 
69 "AI13" 47.899 99.877 65.712 51.231 78.494 49.790 
70 "I18" 25.557 75.831 1.9194 22.158 40.048 7.5622 
71 "AL2" 58.951 70.792 35.719 31.649 40.723 16.874 
72 "Q3" 24.885 100.00 81.351 49.668 77.343 71.915 
73 "H18" 2.1717 62.381 99.847 31.165 32.729 98.901 
74 "AW15" 45.993 66.613 97.023 39.192 39.846 93.957 
75 "E9" 9.1350 77.338 51.440 25.240 42.437 29.047 
76 "AI20" 47.213 41.717 24.501 14.738 15.613 7.6786 
77 "AF13" 79.005 95.864 2.6171 57.172 77.695 13.036 
78 "BK5" 24.909 4.4896 74.605 12.415 6.0015 49.745 
79 "B16" 25.229 0.0000 20.897 3.7578 2.3476 4.4848 
80 "C15" 77.428 25.548 97.228 42.557 23.278 91.003 
81 "K2" 0.21851 44.933 65.468 13.930 15.807 39.355 
82 "AL21" 19.945 55.010 24.127 12.518 20.680 8.6380 
83 "AM12" 79.457 6.5532 24.164 26.325 14.247 6.6824 
84 "K5" 25.700 27.029 93.437 20.614 12.461 82.485 
85 "F15" 42.120 96.627 32.417 41.333 70.222 20.275 
86 "BJ15" 72.779 3.4370 76.584 30.828 15.387 53.505 
87 "I10" 71.426 52.230 28.300 29.625 27.987 10.801 
88 "BG9" 20.796 49.858 77.061 19.909 20.780 55.840 
89 "AW5" 94.876 62.410 97.249 66.304 50.986 95.144 
90 "BK4" 0.24921 41.248 32.497 7.5686 11.659 10.789 
91 "A9" 70.650 72.081 4.0469 36.658 44.506 7.8134 
92 "AR15" 74.626 50.901 72.399 38.604 31.081 50.071 
93 "W14" 14.498 75.098 19.475 20.871 38.717 10.185 
94 "AM15" 43.338 82.124 54.350 34.690 51.494 33.007 
95 "BF11" 75.546 28.714 8.6494 25.201 16.984 3.5652 
96 "AY2" 83.020 100.00 49.000 66.863 87.081 33.345 
97 "AW16" 50.215 21.716 76.866 21.057 12.234 53.835 
98 "R11" 71.628 98.766 89.167 68.451 85.266 85.952 
99 "N12" 21.749 22.628 49.635 7.8332 6.2889 21.399 
100 "X15" 89.223 24.878 69.156 42.103 23.939 44.118 
101 "AT21" 11.776 22.111 70.591 11.107 7.3730 44.463 
102 "BD16" 64.255 98.025 20.416 50.577 76.707 16.227 
103 "Y3" 100.00 72.217 29.348 60.084 56.552 15.175 
104 "S11" 11.813 81.662 82.788 35.578 50.709 69.875 
105 "BF21" 22.146 29.796 9.1964 5.3561 7.0233 2.7597 
106 "Q18" 75.318 78.646 51.542 47.198 54.883 30.385 
107 "AI12" 78.601 22.943 48.662 29.828 17.707 21.619 
108 "AK4" 9.8523 22.185 30.313 4.1644 4.5959 8.5354 
109 "C13" 90.138 23.907 28.993 36.133 21.423 9.4957 
110 "A18" 50.243 3.1664 3.0539 9.9606 5.7440 1.6652 
111 "O11" 63.857 63.918 91.296 43.421 40.434 82.576 
112 "AI17" 59.079 45.842 100.00 37.729 27.200 97.813 
113 "I14" 97.005 50.777 13.671 47.237 36.434 6.9686 
114 "AK7" 54.286 1.8881 42.572 14.209 7.5739 15.778 
115 "B7" 4.3904 48.841 0.0000 8.3433 15.478 3.4079 
116 "AB10" 41.242 22.082 15.407 8.5698 6.9607 3.6777 
117 "BJ6" 49.741 76.392 82.022 40.333 48.570 67.949 
118 "AB12" 86.811 68.706 67.052 53.126 49.618 45.785 
119 "BC6" 1.5893 60.763 51.903 16.794 25.874 26.713 
120 "I8" 87.309 39.398 40.230 37.978 26.550 16.585 
121 "K3" 60.148 78.026 17.951 34.774 48.357 10.899 
122 "A15" 36.614 10.777 32.947 7.4902 4.7553 9.6923 
123 "F21" 12.174 12.633 12.118 2.3214 2.4206 2.4816 
124 "L2" 98.518 59.992 52.962 56.075 45.629 29.433 
125 "AW12" 20.605 84.777 37.575 28.870 51.279 20.153 
126 "AP3" 28.482 95.112 97.619 52.206 72.336 100.77 
127 "P12" 37.205 63.331 48.264 21.908 30.224 24.121 
128 "G5" 66.372 39.529 52.432 26.081 20.251 25.623 
129 "AI2" 50.138 7.2144 96.661 26.556 12.590 88.623 
130 "V20" 49.102 63.296 65.185 28.927 33.440 41.624 
131 "AT4" 91.306 9.4712 51.185 38.566 20.388 23.861 
132 "BA21" 5.9400 7.0136 48.012 4.9142 2.9279 19.538 
133 "AO11" 87.073 38.531 60.429 40.966 27.391 34.306 
134 "V16" 85.576 42.727 21.311 35.768 26.878 7.6620 
135 "E2" 87.799 13.875 90.524 46.265 23.589 77.724 
136 "S4" 9.3632 11.920 85.184 14.268 7.1006 66.636 
137 "Q10" 36.554 43.745 66.242 18.261 17.521 40.412 
138 "AB8" 35.341 40.933 47.115 13.490 14.381 20.567 
139 "AN4" 60.906 21.775 16.206 16.222 10.846 4.2059 
140 "P20" 79.376 38.453 83.535 41.447 26.904 66.220 
141 "AR17" 67.082 93.899 66.580 55.493 73.814 49.739 
142 "AQ16" 32.071 65.575 84.792 30.447 35.123 70.520 
143 "H17" 81.157 68.544 37.943 43.725 45.248 18.431 
144 "Q5" 60.726 12.427 60.696 20.697 11.227 32.548 
145 "I1" 41.490 38.367 89.572 25.092 18.207 76.035 
146 "N17" 36.102 7.4678 60.200 11.342 6.0121 31.486 
147 "G4" 85.467 100.00 17.592 65.480 86.738 16.598 
148 "V12" 80.815 65.877 86.053 52.800 46.809 73.780 
149 "AX15" 2.4800 92.761 50.641 34.863 62.310 31.665 
150 "AL19" 32.826 62.638 12.830 17.261 27.755 6.7124 
151 "D8" 95.615 86.521 13.677 63.676 71.131 12.801 
152 "AE1" 61.973 47.208 10.615 21.859 21.669 4.9221 
153 "E14" 2.3450 53.769 16.025 10.340 18.938 6.0358 
154 "BE18" 88.116 11.020 9.0507 32.216 17.691 3.3846 
155 "G14" 3.7999 47.327 83.738 19.810 19.305 66.234 
156 "AT17" 49.135 32.371 59.873 18.111 13.661 32.249 
157 "H20" 62.060 33.249 87.433 31.391 19.893 72.149 
158 "L19" 97.798 88.706 63.416 73.227 77.538 45.688 
159 "AS21" 40.084 39.362 10.582 11.192 12.982 3.8018 
160 "AR14" 20.413 87.242 63.821 34.913 56.297 44.083 
161 "M2" 76.403 81.758 81.077 56.807 61.805 68.096 
162 "AB15" 21.166 62.463 37.303 16.878 27.238 15.979 
163 "AQ20" 95.954 47.367 86.670 57.839 38.820 73.055 
164 "T7" 47.845 27.888 32.154 12.693 10.176 10.059 
165 "B11" 86.317 60.527 20.759 42.386 39.329 9.5466 
166 "U14" 92.946 79.055 99.818 74.196 67.574 103.30 
167 "Z20" 84.349 85.146 3.5164 53.419 64.527 10.757 
168 "BA12" 49.277 61.953 25.733 22.533 29.952 10.501 
169 "T20" 12.239 83.091 4.3581 24.907 47.870 9.1052 
170 "AO18" 36.281 95.244 4.7947 37.183 66.687 12.126 
171 "S6" 35.118 84.240 17.443 29.603 51.331 11.616 
172 "AA2" 35.514 52.276 34.203 15.286 20.554 12.997 
173 "C10" 67.068 16.775 90.205 32.625 16.927 76.563 
174 "B3" 33.876 82.815 85.494 40.472 54.196 74.882 
175 "I11" 0.34270 78.154 99.892 39.125 48.705 101.66 
176 "I5" 17.194 37.465 40.252 8.5275 10.687 15.088 
177 "AM8" 65.648 16.385 38.691 19.888 11.688 13.674 
178 "W7" 9.7496 41.599 96.608 23.027 18.031 89.750 
179 "BB7" 12.421 65.249 89.125 28.915 33.941 78.050 
180 "AQ17" 86.164 86.551 33.286 57.280 67.710 19.399 
181 "W4" 14.321 35.923 60.168 11.222 11.181 32.456 
182 "AY8" 36.244 17.330 86.278 19.102 10.188 68.881 
183 "AE19" 94.506 98.856 81.785 82.742 93.023 73.907 
184 "BI19" 14.694 60.734 8.4748 13.496 24.619 5.6333 
185 "AO14" 62.231 65.487 51.765 32.899 37.273 27.940 
186 "AH3" 16.707 39.084 79.886 17.206 14.761 59.195 
187 "BJ9" 3.3335 86.673 13.868 27.015 52.377 11.150 
188 "BA20" 15.922 67.820 67.197 23.985 33.947 44.478 
189 "X9" 4.9303 17.674 4.9588 2.1595 2.9724 1.6850 
190 "AK3" 92.663 37.508 2.2019 39.483 26.937 4.1395 
191 "P9" 59.408 76.256 99.810 50.720 53.073 101.72 
192 "S16" 47.661 100.00 50.705 48.229 77.441 33.939 
193 "AH8" 11.596 38.047 25.310 6.6834 10.107 7.3421 
194 "AS11" 53.094 75.965 0.0000 29.991 44.201 7.8121 
195 "AN12" 60.393 48.599 64.430 27.983 24.719 39.078 
196 "AC18" 72.508 87.301 33.007 48.400 63.880 18.982 
197 "R6" 0.0000 18.545 97.525 18.899 9.7871 90.256 
198 "Z2" 55.085 79.705 63.462 39.429 51.535 42.503 
199 "AY14" 17.171 8.5858 37.090 4.3276 2.9000 11.814 
200 "BD17" 60.607 46.228 36.392 22.645 21.434 14.014 
201 "E18" 6.5207 79.003 65.879 29.005 45.478 44.794 
202 "AR21" 87.032 37.958 97.571 51.917 31.551 92.812 
203 "BD3" 70.865 60.207 13.783 31.465 33.538 7.2624 
204 "W2" 79.998 12.005 59.774 31.774 16.919 32.050 
205 "W6" 66.115 3.2195 14.134 17.517 9.6108 3.4483 
206 "BF18" 99.888 35.028 74.322 54.440 32.784 52.292 
207 "BG3" 25.570 14.256 21.130 4.4635 3.6527 4.7714 
208 "N1" 20.121 14.215 61.588 9.0290 5.3804 33.034 
209 "F4" 3.4877 44.541 47.994 10.523 14.277 21.419 
210 "S12" 96.934 32.882 29.353 43.420 27.368 10.421 
211 "K19" 82.275 92.840 100.00 75.039 81.498 106.33 
212 "G10" 96.556 43.548 51.581 48.429 33.341 26.197 
213 "BF5" 53.912 95.292 78.259 53.294 73.868 66.159 
214 "X1" 57.150 15.128 1.8215 13.419 8.4463 1.9153 
215 "AT8" 20.249 97.834 91.362 50.627 74.897 88.973 
216 "AF3" 48.260 78.819 30.117 31.092 47.050 15.220 
217 "AC21" 2.6799 83.868 35.262 26.682 49.314 18.534 
218 "R1" 16.491 4.8507 1.3155 2.1003 1.7650 1.1851 
219 "B14" 82.241 83.647 62.494 57.093 64.275 42.904 
220 "AL17" 36.230 30.979 2.3847 8.2090 8.8211 2.3029 
221 "AD12" 28.557 77.700 47.442 27.147 43.805 25.792 
222 "AC19" 14.197 98.048 0.70798 35.590 69.075 12.370 
223 "D10" 70.106 85.414 8.4884 44.266 60.057 10.855 
224 "AV15" 38.764 99.360 80.722 51.981 77.796 70.865 
225 "K10" 34.389 1.2009 12.782 5.2549 3.2119 2.5984 
226 "AP20" 51.004 39.300 44.408 17.620 15.953 18.553 
227 "D17" 95.281 16.625 98.974 55.874 28.511 94.938 
228 "AW18" 78.974 96.799 29.791 59.122 79.619 19.880 
229 "B21" 41.684 51.261 2.9381 14.958 20.062 4.1574 
230 "A12" 39.344 54.176 97.334 32.065 28.459 92.773 
231 "AN7" 40.117 58.018 77.388 26.951 28.770 57.506 
232 "AE10" 81.061 10.890 36.262 28.734 15.678 12.506 
233 "M12" 60.201 83.820 46.602 41.132 56.550 26.841 
234 "AQ5" 36.175 29.255 55.988 12.750 10.150 27.792 
235 "R2" 11.899 0.73764 94.239 17.178 7.5651 83.293 
236 "AI8" 38.394 85.439 67.477 38.145 56.089 48.362 
237 "AJ12" 65.646 24.728 55.867 23.493 14.651 27.974 
238 "M16" 30.308 57.842 58.652 19.875 25.551 33.137 
239 "BB5" 39.249 78.260 99.828 44.363 51.499 101.79 
240 "AJ19" 41.999 38.758 75.855 20.994 16.734 53.197 
241 "AI21" 98.923 18.137 3.4697 41.862 23.513 3.4451 
242 "R3" 100.00 59.851 80.451 63.975 48.853 64.212 
243 "T6" 12.939 95.144 40.236 35.645 65.512 24.232 
244 "BG17" 22.033 77.138 79.795 33.055 45.525 64.154 
245 "AE13" 99.394 0.58302 14.553 41.618 21.928 4.6428 
246 "AO21" 62.259 0.0000 84.920 27.451 13.211 66.668 
247 "AC16" 0.0000 0.32129 85.048 13.393 5.9703 66.229 
248 "I20" 28.536 99.786 30.186 40.262 73.380 19.852 
249 "N7" 85.759 64.338 3.5822 43.034 42.190 6.9968 
250 "BF10" 67.083 82.889 85.832 53.437 60.937 76.089 
251 "AI15" 68.390 70.202 25.934 35.310 42.268 12.283 
252 "U12" 83.253 54.475 36.234 39.024 33.929 15.471 
253 "Q6" 9.5167 49.974 37.207 10.989 17.149 14.284 
254 "BJ12" 0.0000 70.682 15.922 17.596 33.565 8.4534 
255 "Z8" 13.397 97.160 59.186 40.343 69.860 41.182 
256 "BE16" 100.00 91.581 43.557 73.674 81.180 27.562 
257 "R9" 24.181 21.899 81.421 15.565 9.2780 60.686 
258 "D12" 87.909 0.49309 97.700 48.450 23.525 91.712 
259 "AB14" 66.593 54.145 85.283 38.842 32.439 70.403 
260 "Z16" 95.631 1.5475 87.941 51.286 25.446 73.083 
261 "AW14" 0.35105 97.867 86.834 47.701 73.610 80.595 
262 "E20" 77.284 21.827 81.422 36.427 20.021 61.663 
263 "P10" 4.8799 0.15209 13.762 1.4623 1.2096 2.5981 
264 "L5" 52.205 96.549 18.597 43.801 71.523 15.066 
265 "B6" 71.079 38.747 21.299 24.991 19.822 6.8639 
266 "BF6" 62.972 2.5168 32.347 17.063 9.2079 9.7397 
267 "AE17" 39.168 23.001 95.350 23.759 13.152 86.230 
268 "AG16" 41.932 73.250 5.7695 24.627 39.218 7.5697 
269 "AQ14" 75.847 63.634 95.091 51.656 44.329 90.262 
270 "N14" 11.695 31.785 0.19457 4.4447 7.1049 2.0111 
271 "V7" 11.796 95.109 23.487 33.930 64.773 15.794 
272 "H13" 39.537 1.8592 84.864 18.668 8.7598 66.174 
273 "AZ20" 84.187 0.17290 0.0000 28.657 15.267 2.2973 
274 "M17" 72.914 36.148 99.891 42.663 26.066 97.103 
275 "AE8" 15.688 47.157 14.612 8.8810 14.938 5.0300 
276 "AA14" 96.833 15.537 19.053 40.229 22.260 5.8700 
277 "BC20" 49.628 70.698 46.603 29.102 39.175 24.122 
278 "U20" 96.602 12.667 63.986 45.824 24.124 37.493 
279 "U2" 68.272 62.724 39.467 33.048 35.715 18.114 
280 "BC17" 19.767 66.601 98.297 33.710 36.954 96.320 
281 "BH15" 60.790 58.711 74.808 34.424 33.118 54.116 
282 "BJ2" 85.731 52.937 61.126 44.315 35.376 36.445 
283 "BK16" 31.369 41.494 19.960 9.9473 13.089 5.9524 
284 "BK18" 84.801 69.055 53.359 48.902 48.027 30.646 
285 "BC21" 66.154 31.796 0.38452 20.059 15.159 2.7571 
286 "O18" 49.403 31.521 15.651 12.761 11.276 4.3444 
287 "BC4" 36.066 6.0345 49.207 9.2367 5.0786 20.727 
288 "AU6" 99.826 70.170 13.470 57.906 53.974 9.7534 
289 "H15" 76.204 21.736 20.892 25.124 15.401 5.8777 
290 "X16" 14.830 51.538 66.252 16.962 20.420 41.052 
291 "AM3" 74.159 99.885 55.331 61.883 84.248 38.854 
292 "AS19" 33.292 50.687 87.089 25.569 23.740 72.586 
293 "L9" 39.275 24.500 42.060 10.592 8.2094 15.731 
294 "AR1" 48.494 19.268 63.894 16.813 10.019 36.189 
295 "R4" 22.316 68.273 20.223 18.274 32.105 9.2616 
296 "L20" 3.2257 13.589 21.662 2.3753 2.4977 4.8259 
297 "AF7" 41.981 52.946 14.927 15.937 21.395 5.9713 
298 "S19" 16.870 18.966 2.6522 3.0850 3.6458 1.5932 
299 "AO6" 97.472 14.220 40.226 42.557 23.088 15.672 
300 "AF5" 37.748 19.432 70.693 15.097 8.9699 44.699 
301 "BD5" 54.881 57.412 36.543 23.901 27.775 15.260 
302 "AV17" 31.483 100.00 62.102 45.845 75.958 45.303 
303 "AB1" 48.175 2.2254 55.714 13.966 7.2160 26.888 
304 "BE3" 61.668 18.820 74.253 24.993 13.867 50.093 
305 "S14" 58.250 93.641 33.122 45.288 68.912 20.177 
306 "AM18" 53.563 12.587 32.998 13.251 7.8954 10.021 
307 "AC7" 52.069 60.835 87.128 35.246 34.400 74.203 
308 "BH21" 4.5668 13.074 40.456 4.1252 3.1431 13.999 
309 "AD16" 39.267 100.00 13.658 41.921 74.610 14.615 
310 "AO3" 86.995 42.258 72.708 44.773 30.404 50.047 
311 "W16" 22.636 85.627 11.211 27.838 51.785 10.514 
312 "BG12" 87.466 90.273 87.869 72.541 78.004 81.980 
313 "AA10" 19.080 13.644 95.711 19.003 9.2857 86.459 
314 "J14" 14.579 95.195 75.854 42.997 68.529 62.034 
315 "AK16" 73.354 60.687 62.212 39.032 37.059 38.278 
316 "BG14" 2.5666 29.340 74.067 12.640 9.6305 49.657 
317 "AH20" 0.0000 69.991 58.894 22.321 34.894 35.069 
318 "D3" 41.039 38.150 33.759 12.652 13.135 11.465 
319 "AH5" 98.028 15.855 82.562 52.371 27.284 64.094 
320 "A16" 35.817 87.371 44.222 34.314 56.531 25.368 
321 "R12" 71.462 12.277 13.692 20.945 11.981 3.6372 
322 "BE21" 2.3934 13.680 60.922 7.5544 4.5767 32.209 
323 "Q7" 99.386 96.578 56.892 79.040 89.199 40.473 
324 "BE15" 17.231 54.577 88.399 24.704 25.262 75.275 
325 "BC3" 62.448 95.668 97.144 63.951 79.038 100.47 
326 "AB3" 88.273 26.910 0.0000 33.856 21.034 3.1366 
327 "AF14" 74.742 42.338 35.090 29.281 23.247 13.269 
328 "F19" 94.068 66.050 37.424 52.542 48.028 18.186 
329 "D1" 32.508 27.714 80.996 17.828 11.674 60.342 
330 "AR9" 63.647 52.793 48.269 27.883 27.104 23.208 
331 "BI4" 24.029 21.529 37.217 6.3107 5.5027 12.288 
332 "C21" 13.883 11.331 75.211 11.529 5.9837 50.672 
333 "S10" 60.989 54.812 21.659 24.423 26.728 8.3409 
334 "AL7" 84.387 2.7682 80.466 39.809 19.858 59.911 
335 "BI12" 72.077 2.7449 64.050 27.172 13.846 36.568 
336 "BH8" 32.281 85.292 30.201 30.492 52.700 16.382 
337 "AP14" 2.3177 20.980 84.318 14.502 8.4611 65.403 
338 "BF4" 37.871 0.0000 27.084 6.9012 3.9194 6.8388 
339 "P15" 67.146 19.656 1.9956 18.838 11.878 2.3049 
340 "BA15" 43.940 11.170 5.1472 8.1170 5.2883 1.8342 
341 "BH2" 97.348 100.00 12.478 75.071 91.707 15.948 
342 "K9" 59.087 97.593 58.296 52.417 76.607 40.901 
343 "V13" 61.380 98.402 7.3304 48.920 76.350 13.618 
344 "AX8" 63.998 54.269 3.5476 25.096 26.854 4.9788 
345 "AZ19" 57.425 39.051 73.306 26.158 19.583 49.780 
346 "J18" 24.590 63.587 1.7835 15.853 27.679 5.4968 
347 "AV16" 65.598 25.907 41.267 21.305 14.044 15.745 
348 "AH17" 40.813 83.237 2.4193 30.067 50.671 9.2325 
349 "AD18" 21.837 66.711 51.692 20.961 31.970 27.479 
350 "H12" 99.760 74.763 60.175 65.706 60.963 39.203 
351 "H3" 34.931 51.886 48.770 16.922 20.976 23.021 
352 "Y12" 10.183 27.427 100.00 21.457 12.693 95.870 
353 "AV14" 75.799 39.676 65.055 34.276 24.233 39.407 
354 "AX5" 76.981 13.793 88.121 37.633 19.227 72.927 
355 "L13" 87.299 27.528 58.742 38.625 23.008 31.754 
356 "AS9" 10.032 64.120 24.065 15.312 27.659 9.8157 
357 "T8" 11.007 94.426 13.271 32.840 63.511 12.876 
358 "AM6" 59.566 35.129 26.749 18.425 15.184 8.2695 
359 "AL1" 13.268 21.555 55.211 7.7431 5.9330 26.470 
360 "AH12" 14.222 25.662 16.822 4.0559 5.3406 3.9303 
361 "AU7" 24.808 44.798 66.697 16.221 16.897 40.967 
362 "BG1" 24.880 41.641 88.798 21.830 17.762 74.703 
363 "AT16" 88.726 77.116 12.028 52.060 56.520 10.289 
364 "J2" 10.877 58.173 78.196 22.258 26.414 58.536 
365 "AN5" 3.3866 70.996 46.083 20.684 35.069 23.363 
366 "AY6" 22.843 7.9004 87.946 16.349 7.7403 71.515 
367 "C4" 2.4516 73.303 84.449 30.843 41.065 71.060 
368 "Y8" 39.925 71.516 57.850 28.294 39.155 34.475 
369 "AE5" 29.107 42.976 74.345 18.447 17.065 51.187 
370 "I7" 41.795 74.754 38.888 27.555 41.688 19.186 
371 "BK15" 88.916 11.096 28.110 33.847 18.424 8.6506 
372 "Y21" 46.247 70.718 19.185 25.160 37.474 9.6372 
373 "W3" 61.125 16.374 100.00 33.231 16.755 96.034 
374 "AC14" 16.821 89.955 48.980 33.487 58.655 29.599 
375 "BE2" 2.6977 27.758 36.711 5.2857 6.2709 12.189 
376 "U6" 11.622 19.663 41.601 5.2349 4.5700 14.992 
377 "AU20" 93.328 87.736 22.852 62.986 71.931 15.427 
378 "AA9" 96.761 34.211 62.684 48.549 29.827 36.925 
379 "Z12" 56.450 57.124 97.264 39.283 33.826 93.284 
380 "AY21" 11.280 74.242 32.032 21.076 38.018 14.931 
381 "N16" 24.586 44.490 30.038 10.219 14.353 9.9712 
382 "D6" 85.780 28.842 89.234 46.043 26.182 75.849 
383 "AN1" 35.463 1.8249 72.120 13.822 6.6959 46.281 
384 "AY1" 99.850 41.668 20.665 47.449 32.488 7.9310 
385 "AX19" 82.550 51.624 83.445 47.442 35.626 67.437 
386 "V1" 52.856 46.340 1.7466 17.316 18.958 3.7337 
387 "I17" 38.158 32.591 21.711 9.6750 9.9502 5.8956 
388 "AI6" 11.424 85.426 98.540 43.569 57.727 100.32 
389 "AT10" 14.309 70.445 1.4059 17.843 33.556 6.4991 
390 "AA1" 78.018 36.845 1.7059 28.288 20.943 3.5360 
391 "BK20" 70.000 98.766 76.553 63.487 83.170 64.822 
392 "F3" 82.723 0.0000 14.163 27.898 14.832 3.9154 
393 "L3" 2.8271 79.469 7.4063 22.266 43.209 8.6325 
394 "G7" 51.310 30.076 87.618 26.093 16.274 72.060 
395 "AL11" 52.812 10.733 81.748 22.564 11.397 61.259 
396 "AD19" 84.412 26.963 39.187 33.185 20.437 14.978 
397 "P2" 32.313 87.731 56.949 35.872 57.448 36.676 
398 "AJ13" 2.5738 58.053 65.120 18.391 24.747 40.421 
399 "B19" 24.263 84.248 88.817 40.633 55.499 81.031 
400 "W13" 74.441 60.883 76.892 43.501 39.056 57.869 
401 "M4" 77.716 69.570 16.318 40.155 44.361 9.4409 
402 "R8" 74.109 92.776 44.187 54.568 72.601 27.377 
403 "AF16" 79.197 34.032 49.626 32.223 21.645 23.072 
404 "M18" 13.014 6.4313 21.452 2.4919 1.9721 4.6516 
405 "AX16" 37.293 59.617 23.318 17.597 25.970 9.1056 
406 "AJ14" 66.162 13.433 51.368 21.768 12.090 23.308 
407 "AS3" 87.811 98.243 5.6496 65.498 84.716 14.188 
408 "O12" 1.0945 42.184 20.588 6.9240 11.795 6.0478 
409 "AR18" 80.601 48.480 21.436 33.837 28.375 8.0921 
410 "T19" 47.004 49.026 35.939 17.810 20.227 13.773 
411 "AT19" 81.851 98.859 84.596 73.684 88.252 78.162 
412 "AG21" 63.555 2.2588 71.988 24.349 12.145 46.595 
413 "BI6" 25.500 6.5404 12.163 3.5986 2.5988 2.4566 
414 "Y20" 84.534 70.578 96.502 61.546 54.286 94.504 
415 "AH6" 89.802 85.116 73.124 66.393 70.173 57.170 
416 "Z19" 72.958 71.931 87.884 51.246 50.375 77.795 
417 "BH4" 50.520 85.827 17.649 35.450 55.876 12.237 
418 "I16" 98.336 84.448 0.41209 64.453 69.551 10.920 
419 "AP17" 34.604 74.144 100.00 40.910 46.271 101.33 
420 "BJ17" 42.977 73.040 86.325 37.561 44.249 74.565 
421 "C7" 95.228 46.792 95.729 60.290 39.448 90.142 
422 "J3" 81.370 30.571 70.442 37.426 22.841 45.861 
423 "C12" 48.980 89.678 41.342 39.558 61.627 24.020 
424 "Y9" 2.8310 29.754 61.030 9.5495 8.5092 32.982 
425 "BK1" 13.846 25.382 85.755 16.170 10.117 68.108 
426 "AE20" 32.375 14.868 49.255 8.8797 5.6489 20.896 
427 "BF1" 28.432 0.0000 63.982 10.242 5.0066 35.672 
428 "F8" 71.359 37.323 76.785 34.001 22.913 55.092 
429 "T1" 91.318 52.094 3.7694 42.560 34.715 5.5924 
430 "V10" 64.318 13.202 24.318 17.578 10.275 6.4319 
431 "Y11" 62.437 31.700 12.572 18.358 14.226 3.9961 
432 "Q14" 27.194 1.0024 35.257 5.3047 3.0494 10.727 
433 "X11" 86.398 85.657 51.170 59.270 67.581 31.866 
434 "BG11" 80.463 13.576 1.6440 26.583 15.055 2.4848 
435 "AT1" 63.653 28.409 96.347 34.561 19.852 88.965 
436 "AW13" 88.501 51.089 47.727 43.352 34.220 23.321 
437 "AD10" 42.793 62.313 35.455 21.361 29.477 15.095 
