static/misc/rgb-printer-882.ti1
CTI1

DESCRIPTOR "Argyll Calibration Target chart information 1"
ORIGINATOR "Argyll targen"
CREATED "Fri Apr  3 14:55:12 2009"
KEYWORD "APPROX_WHITE_POINT"
APPROX_WHITE_POINT "95.106486 100.000000 108.844025"
KEYWORD "COLOR_REP"
COLOR_REP "RGB"
KEYWORD "WHITE_COLOR_PATCHES"
WHITE_COLOR_PATCHES "4"
KEYWORD "MULTI_DIM_STEPS"
MULTI_DIM_STEPS "2"
KEYWORD "ERROR_OPTIMISED_PATCHES"
ERROR_OPTIMISED_PATCHES "871"

NUMBER_OF_FIELDS 7
BEGIN_DATA_FORMAT
SAMPLE_ID RGB_R RGB_G RGB_B XYZ_X XYZ_Y XYZ_Z 
END_DATA_FORMAT

NUMBER_OF_SETS 882
BEGIN_DATA
1 100.00 100.00 100.00 95.106 100.00 108.84 
2 100.00 100.00 100.00 95.106 100.00 108.84 
3 100.00 100.00 100.00 95.106 100.00 108.84 
4 100.00 100.00 100.00 95.106 100.00 108.84 
5 0.0000 0.0000 0.0000 1.0000 1.0000 1.0000 
6 100.00 0.0000 0.0000 41.830 22.052 2.9132 
7 0.0000 100.00 0.0000 36.405 71.801 12.802 
8 100.00 100.00 0.0000 77.235 92.853 14.715 
9 0.0000 0.0000 100.00 18.871 8.1473 95.129 
10 100.00 0.0000 100.00 59.701 29.199 97.042 
11 0.0000 100.00 100.00 54.276 78.948 106.93 
12 50.397 50.772 49.568 21.478 22.750 23.801 
13 3.9087 29.510 48.415 7.1997 7.5061 20.636 
14 51.111 3.0947 74.009 19.314 9.5204 49.201 
15 26.496 51.374 95.622 27.509 24.728 88.813 
16 24.783 50.063 2.9543 10.682 17.265 3.8439 
17 25.356 96.270 53.123 39.973 68.787 34.901 
18 96.950 22.329 48.344 44.057 24.934 21.999 
19 49.165 5.4592 23.807 10.408 5.9842 5.7978 
20 78.193 48.345 96.865 48.092 33.817 92.001 
21 96.480 79.913 50.226 63.826 64.598 30.218 
22 78.623 49.394 2.7206 32.131 28.001 4.7697 
23 51.924 94.298 6.2679 41.561 67.888 12.260 
24 50.911 94.182 92.755 56.052 73.500 91.079 
25 1.3388 67.286 33.455 17.205 30.726 14.460 
26 3.5890 70.813 71.794 25.858 36.990 51.044 
27 62.059 98.883 43.757 52.394 78.386 28.290 
28 51.614 27.869 99.191 30.141 17.313 94.590 
29 27.663 0.42113 47.525 6.9795 3.7036 19.181 
30 72.595 2.6019 45.550 24.038 12.622 18.439 
31 29.844 29.176 70.504 14.545 10.680 44.803 
32 67.148 72.569 71.755 43.324 47.352 52.070 
33 68.274 28.152 69.285 28.410 17.613 43.788 
34 28.196 27.336 31.135 7.2004 7.2249 9.2750 
35 35.505 70.731 29.745 22.745 36.154 13.385 
36 69.140 29.620 31.680 22.785 15.813 10.379 
37 30.524 74.620 67.625 29.803 42.139 46.297 
38 80.234 80.387 22.848 48.191 57.317 13.384 
39 0.23398 32.502 86.762 17.015 12.291 70.248 
40 50.288 30.004 5.8082 12.526 10.783 2.7219 
41 99.206 51.395 70.585 57.296 41.020 48.517 
42 99.704 52.909 27.100 51.190 39.469 11.375 
43 5.9494 32.714 13.218 4.5741 7.4030 3.5244 
44 5.1547 0.19086 66.758 8.3773 3.9781 38.962 
45 80.377 100.00 73.370 70.212 88.203 60.797 
46 4.8374 94.206 31.978 33.563 63.501 19.165 
47 2.6055 66.891 0.0000 15.421 29.716 5.7834 
48 3.4365 97.973 70.613 43.066 71.900 55.266 
49 94.633 3.5554 29.950 38.424 20.290 9.5912 
50 29.895 0.79604 94.384 19.664 8.8426 83.695 
51 93.692 2.6264 69.829 44.249 22.485 44.614 
52 71.674 3.3187 96.880 37.000 17.773 89.519 
53 22.721 54.456 50.422 15.741 21.687 24.638 
54 94.994 27.959 16.051 39.978 24.390 5.5333 
55 4.3970 2.1565 28.016 2.3387 1.6461 7.0314 
56 33.178 12.190 0.40848 5.1665 3.8709 1.3643 
57 51.137 51.345 79.514 28.846 26.038 60.171 
58 51.895 60.476 5.4080 22.026 28.864 5.6752 
59 76.486 77.814 99.827 61.183 59.788 102.50 
60 97.277 30.020 88.795 55.592 31.423 75.556 
61 46.099 22.069 51.477 13.824 9.2387 23.273 
62 23.804 78.557 97.571 40.309 49.771 96.940 
63 70.352 6.9336 2.3320 19.738 10.968 2.1063 
64 98.470 72.045 6.4153 57.430 55.184 8.9865 
65 97.108 96.611 29.867 73.230 86.677 20.534 
66 74.853 55.233 51.556 35.736 32.399 26.661 
67 23.086 96.346 18.104 35.803 67.171 14.517 
68 99.737 80.040 84.344 75.143 69.586 74.053 
69 46.960 98.080 65.338 49.383 75.431 48.838 
70 27.934 74.476 4.9648 21.872 38.783 7.5597 
71 60.963 73.211 35.099 33.805 43.720 16.988 
72 26.636 99.867 78.043 48.861 76.884 66.641 
73 4.3859 60.010 95.535 28.531 30.076 89.618 
74 48.119 68.084 97.956 41.009 41.788 96.160 
75 13.752 74.614 52.325 24.197 39.613 29.361 
76 47.320 43.290 26.319 15.329 16.527 8.5188 
77 73.434 97.319 3.2297 54.681 78.071 13.284 
78 28.082 7.2216 77.569 13.907 6.8182 54.233 
79 25.667 2.7226 23.293 4.0544 2.5940 5.2981 
80 77.930 23.359 99.483 43.485 23.204 95.640 
81 2.4663 44.769 64.051 13.628 15.619 37.624 
82 17.338 53.064 29.073 11.887 19.267 10.392 
83 75.853 6.2648 25.657 24.021 13.031 7.1265 
84 28.250 27.241 95.456 21.863 13.066 86.527 
85 44.384 98.141 32.931 43.275 72.965 20.966 
86 74.493 5.3281 75.693 31.696 15.947 52.241 
87 69.736 53.198 25.490 28.752 28.065 9.7150 
88 24.080 55.042 72.212 20.848 24.098 49.397 
89 99.529 60.858 100.00 70.901 52.243 100.90 
90 3.1387 41.408 32.213 7.6738 11.778 10.662 
91 71.676 69.711 2.5145 36.032 42.383 7.3254 
92 75.539 53.345 74.960 40.727 33.347 54.048 
93 12.947 77.828 18.377 22.225 41.713 10.390 
94 42.310 82.201 48.452 33.407 51.020 27.686 
95 74.546 28.947 7.6393 24.580 16.724 3.4249 
96 83.633 94.870 49.888 63.464 79.387 32.798 
97 48.721 24.506 75.612 20.505 12.527 52.051 
98 69.198 95.605 90.355 64.994 79.798 87.272 
99 22.185 24.225 50.418 8.2345 6.7929 22.155 
100 87.491 18.670 69.928 40.178 21.806 44.829 
101 10.474 19.606 70.193 10.624 6.7063 43.825 
102 66.170 96.246 21.485 50.278 74.499 16.145 
103 100.00 72.097 29.421 60.028 56.429 15.187 
104 7.9099 85.653 82.793 37.875 55.663 70.720 
105 19.849 32.714 10.447 5.6188 7.9519 3.1040 
106 75.184 79.732 49.323 47.384 55.976 28.640 
107 79.830 21.986 50.546 30.856 18.024 23.244 
108 8.8029 18.691 30.041 3.6827 3.7642 8.2730 
109 88.427 24.389 30.609 34.973 20.906 10.201 
110 48.508 2.7191 3.4708 9.3087 5.3890 1.6613 
111 64.325 65.615 87.976 43.269 41.639 76.694 
112 55.156 46.461 94.948 34.172 25.868 87.334 
113 100.00 51.694 15.548 50.349 38.490 7.5946 
114 52.214 3.9379 44.237 13.648 7.3412 16.972 
115 4.2929 50.781 0.41694 8.9783 16.743 3.6490 
116 37.803 23.437 14.337 7.7290 6.7883 3.4606 
117 48.836 79.912 80.515 41.579 52.306 66.160 
118 85.865 70.049 70.070 53.820 50.883 49.913 
119 1.1270 60.305 49.892 16.247 25.347 24.857 
120 85.379 40.034 39.718 36.594 26.076 16.230 
121 59.430 78.435 20.475 34.806 48.712 11.671 
122 35.524 13.246 31.489 7.2357 4.8792 8.9933 
123 10.033 10.643 13.893 2.1092 2.1171 2.7651 
124 96.266 58.808 49.012 52.903 43.354 25.650 
125 20.769 85.434 36.816 29.232 52.111 19.838 
126 32.701 94.928 97.953 53.073 72.562 101.46 
127 36.117 63.203 47.005 21.375 29.889 23.057 
128 67.575 40.195 50.734 26.613 20.803 24.169 
129 52.086 9.5532 93.537 26.235 12.726 82.436 
130 49.735 61.071 66.025 28.397 31.715 42.349 
131 92.408 7.7238 48.608 38.972 20.522 21.636 
132 6.3533 7.8263 48.014 4.9668 3.0064 19.553 
133 83.254 36.452 61.166 37.777 25.021 34.836 
134 82.747 39.132 20.179 32.692 23.937 6.9126 
135 83.985 13.403 84.985 41.437 21.268 67.597 
136 10.978 10.533 88.061 15.255 7.3715 71.709 
137 38.676 50.641 63.634 20.324 21.775 37.967 
138 37.773 38.440 51.225 14.167 13.743 23.899 
139 56.714 22.427 18.428 14.461 10.045 4.6995 
140 83.577 31.079 83.707 42.937 25.376 66.137 
141 64.503 93.229 68.197 54.006 72.268 51.572 
142 30.015 66.992 87.224 31.490 36.556 74.988 
143 78.367 68.767 35.153 41.598 44.351 16.729 
144 57.622 9.7202 61.998 19.360 10.263 33.898 
145 39.100 36.916 88.601 23.728 17.047 74.106 
146 38.658 9.2420 62.118 12.508 6.6899 33.706 
147 87.959 99.439 16.395 66.892 86.804 16.244 
148 82.586 64.796 84.361 53.004 46.239 70.741 
149 6.4832 91.116 50.207 33.747 59.983 30.895 
150 36.769 64.339 15.737 19.083 29.803 7.6070 
151 97.495 83.390 16.669 63.435 67.974 12.856 
152 60.342 45.822 8.7439 20.597 20.408 4.4808 
153 1.9049 55.782 19.483 11.237 20.480 7.1738 
154 89.962 12.324 7.1610 33.726 18.597 3.2510 
155 6.2980 54.510 84.688 22.620 24.295 68.664 
156 48.526 30.360 60.744 17.699 12.876 33.078 
157 61.806 35.435 85.109 30.938 20.418 68.200 
158 96.957 86.594 66.043 71.647 74.534 48.358 
159 39.178 41.487 14.546 11.607 13.972 4.6862 
160 26.217 87.455 67.086 36.695 57.340 48.184 
161 76.927 82.255 79.810 57.072 62.443 66.179 
162 18.841 63.807 39.075 17.385 28.355 17.267 
163 93.477 51.426 85.967 56.773 40.242 72.152 
164 48.090 26.033 28.836 12.194 9.5278 8.3909 
165 86.862 66.226 20.811 45.336 44.600 10.425 
166 95.654 75.803 98.860 74.266 64.880 100.75 
167 85.006 84.973 0.20370 53.750 64.536 10.501 
168 47.862 63.422 23.318 22.491 30.903 9.8002 
169 11.430 81.445 0.0000 23.762 45.766 8.4423 
170 33.000 95.296 4.5244 36.430 66.358 12.080 
171 35.964 82.867 12.780 28.747 49.618 10.319 
172 38.324 49.072 36.334 15.176 18.886 13.881 
173 65.976 18.786 87.579 31.312 16.646 71.787 
174 32.180 84.144 85.004 40.770 55.620 74.296 
175 0.78840 81.723 100.00 41.324 53.009 102.61 
176 15.761 35.809 39.851 7.9602 9.8529 14.693 
177 67.075 13.943 36.907 20.253 11.602 12.546 
178 7.1664 43.884 96.488 23.455 19.170 89.703 
179 15.107 69.553 84.456 29.638 37.562 70.459 
180 86.350 87.594 33.785 58.171 69.202 19.904 
181 16.394 35.115 59.847 11.180 10.910 32.055 
182 34.715 16.881 83.898 17.901 9.5967 64.732 
183 99.900 96.730 84.821 86.875 92.575 78.687 
184 16.409 59.937 11.461 13.414 24.075 5.9659 
185 64.424 65.251 51.487 33.862 37.614 27.705 
186 16.571 37.525 79.166 16.609 13.933 57.932 
187 3.4793 84.488 16.482 25.696 49.558 11.244 
188 15.541 67.339 69.373 24.252 33.679 47.224 
189 2.9439 18.336 0.10836 2.0914 3.0419 1.3445 
190 92.233 40.636 2.1794 39.878 28.260 4.3724 
191 53.443 80.900 99.837 50.825 57.166 102.56 
192 45.964 100.00 49.147 47.382 77.034 32.555 
193 13.306 35.359 22.223 6.0077 8.8913 6.0500 
194 53.886 81.036 2.2236 33.317 50.318 8.9791 
195 61.063 51.418 61.519 28.585 26.476 35.998 
196 74.237 87.554 34.257 49.766 64.822 19.756 
197 2.9586 18.038 98.624 19.378 9.9079 92.537 
198 52.273 82.545 65.888 40.560 54.630 45.963 
199 19.343 7.6509 34.881 4.2919 2.8461 10.531 
200 62.041 47.572 39.906 24.170 22.775 16.370 
201 5.7321 82.638 68.064 31.707 50.091 48.294 
202 87.695 40.359 94.839 51.958 32.556 87.472 
203 65.727 61.193 13.535 28.975 32.869 7.2157 
204 80.791 8.9189 58.948 31.980 16.783 31.122 
205 63.360 2.9517 19.718 16.323 8.9538 4.7484 
206 99.872 33.691 72.516 53.661 32.030 49.624 
207 25.773 15.053 22.962 4.6745 3.8421 5.3927 
208 20.394 10.572 56.269 7.7348 4.4750 27.243 
209 3.4987 43.968 49.529 10.608 14.053 22.661 
210 95.901 38.782 30.217 43.861 29.487 11.204 
211 83.905 96.516 97.767 78.084 87.258 102.59 
212 100.00 42.835 51.121 51.282 34.533 25.864 
213 57.116 95.303 81.160 55.559 74.947 70.832 
214 58.296 11.478 4.5954 13.715 8.2035 2.0564 
215 14.306 98.710 94.514 51.833 76.408 95.298 
216 49.100 80.895 31.766 32.794 49.755 16.446 
217 2.7961 82.708 37.449 26.196 47.945 19.574 
218 14.658 0.0000 4.0684 1.8251 1.4189 1.3325 
219 81.841 82.617 65.428 56.822 63.094 46.174 
220 36.522 25.609 3.6516 7.4219 7.1084 2.1057 
221 27.498 79.975 47.890 28.358 46.409 26.597 
222 22.332 96.356 6.2528 35.301 66.969 12.411 
223 70.733 87.490 14.195 46.191 63.076 12.271 
224 43.796 100.00 81.426 54.209 79.681 72.250 
225 36.432 4.0145 13.101 5.8470 3.6303 2.7071 
226 52.622 37.964 46.254 18.213 15.756 19.899 
227 95.695 20.475 94.052 54.718 28.717 85.031 
228 76.713 100.00 31.993 60.338 83.968 21.713 
229 40.486 55.280 6.1514 16.081 22.753 4.8781 
230 42.947 55.829 96.405 33.382 30.087 91.119 
231 39.438 58.058 74.562 25.975 28.383 53.289 
232 82.085 12.494 39.388 29.929 16.403 14.500 
233 62.310 85.117 45.776 42.877 58.704 26.517 
234 35.879 26.784 57.319 12.534 9.4153 29.013 
235 17.644 0.85627 94.299 17.735 7.8544 83.439 
236 38.075 90.591 72.509 42.844 63.565 56.272 
237 63.192 23.676 56.622 22.213 13.761 28.629 
238 29.591 61.662 62.237 22.056 28.919 37.630 
239 40.642 81.236 99.896 46.568 55.273 102.55 
240 43.039 37.531 77.124 21.391 16.470 55.025 
241 99.742 16.676 3.2370 42.474 23.623 3.4173 
242 98.886 61.599 82.284 64.249 50.017 67.398 
243 13.777 100.00 43.980 40.000 73.318 28.129 
244 18.979 80.775 74.666 33.317 49.017 57.036 
245 95.370 3.1692 16.428 38.160 20.241 4.9162 
246 66.137 2.4212 81.076 28.311 13.894 60.347 
247 4.8715 2.4575 79.487 11.860 5.4690 57.053 
248 28.266 94.636 31.006 36.289 65.393 18.909 
249 86.444 62.783 6.2458 42.906 41.093 7.0146 
250 67.024 81.927 85.350 52.645 59.657 75.046 
251 69.168 69.116 26.422 35.245 41.423 12.317 
252 81.432 53.647 35.760 37.364 32.635 15.035 
253 13.405 52.770 38.466 12.364 19.248 15.389 
254 3.4993 68.585 19.321 16.822 31.589 8.9782 
255 14.630 100.00 59.640 42.790 74.442 42.429 
256 97.096 93.814 42.705 72.538 83.022 27.364 
257 23.547 18.962 75.683 13.438 7.8850 51.631 
258 85.454 5.5412 96.228 46.132 22.609 88.646 
259 64.386 49.174 83.984 35.543 28.268 67.552 
260 98.557 0.17172 83.024 52.238 26.069 64.635 
261 2.8391 97.142 85.551 46.786 72.349 78.153 
262 75.253 19.383 80.289 34.480 18.644 59.675 
263 2.0264 3.7183 15.600 1.5414 1.3870 3.0148 
264 53.274 100.00 21.147 47.091 77.234 16.735 
265 70.724 40.911 19.047 25.189 20.731 6.3653 
266 65.745 4.7395 28.625 18.236 9.9440 8.0596 
267 39.022 19.208 99.499 24.904 12.894 94.663 
268 39.461 76.097 6.8480 25.486 41.976 8.1640 
269 77.687 63.557 97.678 53.830 45.283 95.583 
270 9.5337 34.266 0.0000 4.7851 8.0048 2.1528 
271 16.485 94.364 24.679 33.868 63.903 16.058 
272 41.027 4.2300 82.214 18.314 8.7722 61.742 
273 83.449 0.0000 1.2750 28.127 14.985 2.3632 
274 74.048 36.490 95.995 41.900 25.963 89.044 
275 12.258 47.906 12.228 8.7243 15.209 4.6322 
276 100.00 12.108 17.411 42.770 23.199 5.4840 
277 48.443 69.152 46.030 27.800 37.358 23.388 
278 100.00 13.554 64.906 49.183 25.925 38.768 
279 66.871 62.574 39.186 32.170 35.169 17.875 
280 22.793 64.006 96.339 32.158 34.467 91.895 
281 60.001 58.646 74.298 33.877 32.814 53.346 
282 85.736 51.632 64.390 44.588 34.762 40.094 
283 32.548 42.659 25.227 10.848 13.972 7.8376 
284 84.908 69.289 49.997 48.518 48.069 27.634 
285 65.477 31.230 0.0000 19.585 14.759 2.6770 
286 48.916 31.003 17.207 12.555 11.021 4.6735 
287 40.049 5.1758 43.662 9.4434 5.2379 16.364 
288 97.334 68.401 14.906 54.811 51.066 9.6468 
289 76.522 21.408 24.607 25.531 15.525 7.1322 
290 13.593 53.300 66.924 17.625 21.653 42.095 
291 72.324 100.00 53.585 60.523 83.721 37.137 
292 31.442 50.330 84.949 24.328 23.007 68.773 
293 36.226 25.903 41.065 9.8491 8.1395 15.071 
294 44.566 18.086 63.823 15.319 9.0712 36.001 
295 22.308 65.718 24.026 17.292 29.765 10.104 
296 3.9838 14.469 24.707 2.6661 2.7237 5.9026 
297 44.564 52.648 17.367 16.754 21.648 6.5437 
298 18.427 15.886 0.0000 2.9285 3.1347 1.3105 
299 94.432 13.959 38.364 39.636 21.578 14.339 
300 35.314 17.400 71.646 14.516 8.3375 45.906 
301 57.184 59.943 41.155 26.481 30.550 18.582 
302 30.278 97.942 62.466 44.038 72.590 45.165 
303 52.592 0.0000 54.591 15.380 7.8791 25.839 
304 63.737 19.577 72.193 25.560 14.343 47.239 
305 57.041 93.034 30.720 44.065 67.646 18.797 
306 53.041 12.075 31.204 12.831 7.6479 9.0940 
307 50.780 66.785 84.930 36.670 39.169 71.210 
308 0.16052 12.263 38.188 3.6511 2.8482 12.509 
309 42.540 100.00 16.737 43.011 75.157 15.335 
310 88.138 45.094 73.738 46.725 32.543 51.814 
311 19.193 84.239 9.9665 26.441 49.732 10.001 
312 89.466 86.430 87.930 71.513 73.572 81.288 
313 24.331 11.830 100.00 21.305 10.090 95.376 
314 13.655 93.732 73.610 41.201 66.053 58.391 
315 73.227 61.365 61.911 39.175 37.565 38.025 
316 1.1412 31.168 71.451 12.219 9.9744 46.076 
317 0.0000 71.455 60.191 23.337 36.497 36.730 
318 36.791 34.348 35.889 10.865 10.946 12.318 
319 97.210 15.391 81.728 51.335 26.721 62.670 
320 36.163 89.955 48.744 36.859 60.398 29.559 
321 69.440 13.259 14.739 19.868 11.522 3.8185 
322 2.4922 8.6847 58.595 6.7696 3.7755 29.563 
323 96.628 97.540 54.802 76.892 89.243 38.509 
324 17.659 55.292 87.195 24.602 25.649 73.193 
325 59.544 94.805 98.615 62.468 77.239 103.24 
326 85.433 23.690 0.0000 31.204 18.979 2.8797 
327 72.086 41.896 33.295 27.336 22.092 12.175 
328 94.315 61.718 35.420 50.589 44.167 16.371 
329 31.249 28.582 83.955 18.628 12.188 65.289 
330 63.329 53.429 51.599 28.496 27.690 26.173 
331 23.306 18.194 37.343 5.8490 4.7208 12.237 
332 14.496 7.3032 71.553 10.385 5.1997 45.391 
333 58.110 51.716 20.266 21.883 23.797 7.4804 
334 84.457 3.9925 81.915 40.342 20.131 62.283 
335 72.227 0.0000 58.925 26.084 13.301 30.736 
336 30.207 83.519 29.118 28.816 50.153 15.483 
337 0.0000 18.757 79.483 12.675 7.3322 57.362 
338 39.824 0.0000 26.395 7.3870 4.1761 6.5833 
339 69.438 20.486 4.5692 20.257 12.742 2.5857 
340 43.571 11.089 4.9893 7.9914 5.2166 1.8136 
341 97.592 96.579 14.677 72.678 86.467 15.491 
342 58.396 100.00 58.929 54.132 80.308 42.197 
343 62.607 97.079 12.758 48.647 74.658 14.100 
344 63.142 55.494 2.5575 25.095 27.526 5.0367 
345 55.463 37.824 72.671 24.833 18.489 48.746 
346 25.530 64.779 4.8735 16.588 28.850 5.9130 
347 58.588 25.113 40.552 17.605 11.976 15.058 
348 38.027 83.402 3.4442 29.403 50.482 9.3053 
349 20.232 67.364 49.397 20.672 32.327 25.546 
350 97.190 75.569 62.437 64.299 60.843 41.797 
351 32.918 48.997 53.590 16.314 19.147 27.005 
352 13.772 28.382 98.663 21.341 12.924 93.098 
353 68.629 40.904 62.910 29.755 22.414 36.746 
354 75.309 6.1654 88.992 36.429 17.947 74.323 
355 85.296 24.630 56.682 36.254 21.192 29.385 
356 12.249 62.517 28.673 15.107 26.459 11.434 
357 11.758 99.573 11.929 36.829 71.483 13.963 
358 61.263 33.044 25.279 18.705 14.709 7.5859 
359 12.639 19.971 57.008 7.8543 5.6803 28.220 
360 15.464 25.049 19.137 4.1977 5.2694 4.5113 
361 24.275 47.751 62.959 16.152 18.265 36.718 
362 27.352 41.302 89.332 22.353 17.880 75.674 
363 86.259 77.092 12.814 50.152 55.511 10.335 
364 11.289 61.013 76.873 23.065 28.602 56.900 
365 0.0000 71.165 43.918 20.350 35.063 21.734 
366 21.802 11.726 89.277 16.867 8.2615 74.005 
367 2.0928 75.437 85.805 32.442 43.565 73.793 
368 41.855 68.807 60.459 28.027 36.923 36.860 
369 31.465 40.300 76.854 18.937 16.200 54.695 
370 38.130 74.107 37.308 25.968 40.367 18.038 
371 86.570 12.372 27.867 32.076 17.634 8.4877 
372 46.414 76.750 21.384 28.596 44.061 11.380 
373 61.749 15.108 100.00 33.430 16.697 96.013 
374 17.946 88.939 50.066 33.082 57.378 30.304 
375 2.6521 26.240 35.297 4.8934 5.7378 11.290 
376 13.985 13.983 43.600 5.1737 3.7341 16.253 
377 91.950 90.112 23.889 63.537 74.639 16.281 
378 97.503 31.593 57.211 47.559 28.689 30.778 
379 58.167 60.284 99.768 42.323 37.163 99.002 
380 7.7117 72.166 32.696 19.814 35.713 14.889 
381 22.798 46.512 33.394 10.850 15.515 11.826 
382 87.229 23.678 86.516 45.447 24.832 70.737 
383 36.251 2.6080 70.763 13.686 6.6986 44.429 
384 94.802 39.703 20.103 42.396 29.147 7.3849 
385 83.397 54.942 83.257 49.175 38.276 67.541 
386 49.521 47.032 0.0000 16.201 18.695 3.6150 
387 41.115 31.929 24.651 10.578 10.206 6.9091 
388 12.579 89.475 97.636 46.029 63.091 99.344 
389 14.331 70.622 3.5225 17.964 33.749 6.6835 
390 81.705 36.537 0.0000 30.741 22.108 3.5081 
391 70.109 96.665 78.459 62.464 80.143 67.196 
392 83.927 0.0000 14.174 28.778 15.286 3.9589 
393 2.6086 75.831 8.4460 20.183 39.016 8.0566 
394 49.967 32.315 86.673 25.669 16.703 70.487 
395 55.577 13.282 78.567 22.922 11.939 56.281 
396 81.697 28.253 37.506 31.216 19.749 13.901 
397 31.590 85.882 55.704 34.239 54.801 34.995 
398 3.1067 57.037 63.812 17.711 23.840 38.713 
399 20.999 86.843 86.553 41.083 58.344 77.501 
400 71.377 61.815 74.962 41.472 38.662 55.038 
401 76.917 68.755 13.585 39.110 43.234 8.6924 
402 75.688 92.924 42.453 55.440 73.239 26.197 
403 78.845 34.316 51.226 32.309 21.745 24.489 
404 14.491 3.5341 26.212 2.8489 1.9816 6.3262 
405 36.276 60.696 27.759 18.107 26.860 10.959 
406 68.743 12.933 51.375 23.163 12.757 23.368 
407 87.883 97.809 3.1810 65.176 84.048 13.881 
408 1.8529 42.840 20.190 7.1007 12.149 5.9881 
409 80.673 52.373 20.096 35.099 30.948 8.1146 
410 48.060 46.509 37.372 17.567 18.927 14.380 
411 82.471 100.00 89.353 76.648 90.949 86.958 
412 61.223 0.0000 69.019 22.355 11.114 42.502 
413 24.972 4.1164 12.952 3.4577 2.4032 2.5683 
414 88.371 68.902 98.379 64.382 54.415 98.246 
415 89.198 82.752 76.414 65.310 67.267 61.449 
416 72.901 73.350 92.114 53.458 52.457 85.924 
417 49.961 86.388 18.474 35.650 56.525 12.568 
418 97.746 86.799 2.7219 65.494 72.373 11.578 
419 34.924 71.288 95.321 37.630 42.548 91.116 
420 41.908 76.358 88.731 39.872 48.047 79.476 
421 100.00 43.245 94.819 63.217 39.484 88.176 
422 77.334 30.238 70.508 34.621 21.304 45.802 
423 49.231 89.098 41.544 39.275 60.881 24.029 
424 5.7250 34.171 58.800 10.020 10.045 30.820 
425 11.871 24.773 83.819 15.292 9.6083 64.738 
426 33.763 18.597 50.716 9.7761 6.5874 22.296 
427 29.096 0.24753 58.591 9.2208 4.6238 29.593 
428 73.718 40.847 78.944 36.920 25.607 58.769 
429 90.511 51.995 0.34969 41.818 34.287 5.3009 
430 64.246 13.418 23.030 17.470 10.252 5.9793 
431 63.864 30.973 13.906 18.998 14.351 4.2395 
432 29.559 0.0000 33.767 5.5693 3.1631 9.9179 
433 85.727 87.399 50.285 59.768 69.575 31.443 
434 79.832 17.191 0.0000 26.424 15.423 2.4451 
435 66.161 25.156 94.976 34.858 19.325 86.092 
436 87.892 50.594 46.052 42.452 33.540 21.897 
437 42.395 62.245 37.201 21.403 29.432 16.103 
438 20.124 23.010 63.114 10.263 7.3137 35.095 
439 47.943 16.810 88.711 23.453 12.264 73.398 
440 4.2564 64.205 84.026 26.280 32.075 68.846 
441 27.481 75.303 15.173 22.531 39.765 9.2232 
442 20.107 73.326 60.764 25.809 39.221 37.758 
443 61.215 2.6892 6.1345 14.756 8.1918 2.1354 
444 83.908 31.964 20.621 32.023 21.303 6.5709 
445 70.112 14.395 60.640 25.830 14.087 32.767 
446 26.621 35.978 59.263 12.660 11.962 31.547 
447 26.655 53.353 14.331 12.405 19.790 5.7227 
448 15.547 3.6589 58.950 7.4293 3.8304 29.917 
449 27.851 58.510 38.724 16.464 24.556 16.360 
450 74.110 73.478 61.991 45.562 49.496 40.082 
451 26.835 66.790 71.238 26.005 34.139 49.723 
452 13.217 46.868 72.640 16.930 17.991 49.022 
453 98.914 60.798 65.089 59.252 47.479 42.619 
454 74.186 2.3033 36.577 23.852 12.649 12.363 
455 0.0000 79.706 26.712 23.239 43.814 13.527 
456 14.829 75.812 95.839 36.962 45.791 92.818 
457 26.191 35.208 0.91237 6.8917 9.3816 2.3737 
458 50.144 89.815 75.191 46.934 64.780 60.126 
459 85.625 18.682 44.405 33.724 19.061 18.302 
460 61.651 93.604 3.7627 45.329 69.072 12.078 
461 89.945 60.145 74.068 53.525 43.859 54.112 
462 46.291 40.727 99.199 30.836 21.606 95.399 
463 84.696 57.436 94.982 55.176 42.303 89.469 
464 64.820 78.256 60.930 42.659 51.995 39.521 
465 35.864 11.120 20.970 6.3825 4.3230 4.7504 
466 17.789 0.0000 81.970 13.485 6.1189 61.083 
467 8.7982 61.056 46.545 16.335 25.921 22.190 
468 87.545 0.51081 41.972 33.845 17.652 16.268 
469 44.692 58.101 54.719 23.028 27.417 29.331 
470 93.008 51.936 20.698 44.494 35.564 8.6903 
471 3.1463 56.180 29.864 12.160 21.095 11.090 
472 29.391 17.036 8.6803 4.8846 4.2792 2.1869 
473 62.488 5.0509 54.515 19.980 10.461 26.021 
474 48.129 17.302 24.376 10.810 7.2881 6.2329 
475 84.204 10.218 71.510 37.428 19.356 46.640 
476 73.910 13.063 96.995 38.869 19.409 89.971 
477 96.358 35.507 42.558 44.902 28.762 18.242 
478 41.179 28.544 68.420 16.724 11.707 42.134 
479 70.404 77.586 39.527 41.802 51.391 20.718 
480 38.229 66.146 5.1791 19.992 31.543 6.2793 
481 94.352 82.308 39.564 61.889 65.949 22.495 
482 66.646 83.377 25.222 41.788 56.743 14.462 
483 44.132 41.689 57.333 17.970 16.774 30.162 
484 37.242 22.227 27.572 8.2062 6.7145 7.5124 
485 14.389 49.610 96.962 25.856 22.947 91.272 
486 51.312 50.540 65.066 24.807 23.999 39.874 
487 3.9590 28.719 23.913 4.3326 6.1454 6.1867 
488 19.153 76.011 27.332 22.394 40.196 13.128 
489 59.591 65.243 16.657 27.802 34.906 8.3469 
490 87.428 4.0983 57.759 36.460 18.844 30.030 
491 43.909 73.290 71.758 33.644 42.930 51.730 
492 83.324 96.496 56.919 65.737 82.246 39.859 
493 84.645 75.881 75.749 57.530 57.226 58.931 
494 67.886 54.373 95.963 43.451 34.498 90.545 
495 28.531 29.128 45.748 9.3038 8.5414 18.580 
496 61.708 23.702 29.795 17.749 11.895 8.9879 
497 20.606 12.130 47.906 6.4013 4.0988 19.599 
498 83.860 18.844 95.930 45.720 23.733 88.282 
499 33.365 0.43226 3.8408 4.7813 2.9611 1.4579 
500 7.0253 7.0400 3.9791 1.5138 1.5753 1.3725 
501 87.236 47.060 11.558 37.838 29.837 5.8079 
